ldale1/Universal-Robot-Kinematics/data.csv
x,y,z,rx,ry,rz,q1,q2,q3,q4,q5,q6,vx,vy,vz,wx,wy,wz,vx_t,vy_t,vz_t,wx_t,wy_t,wz_t,print
-0.3264538561123682,-0.44545228949394833,1.0615957707778731,-0.7269537306280869,-1.7541440932505263,1.7754248268604083,0.09078911691904068,-2.018540684376852,1.615809440612793,-2.750085179005758,-0.8781665007220667,0.01169735286384821,0.0,0.0,0.0,0.0,0.0,0.0,0.0,0.0,0.0,0.0,0.0,0.0,False
-0.32646144553423867,-0.4454574010699028,1.061590121531663,-0.7269676551336719,-1.7541692109659084,1.7754288580339685,0.09080110490322113,-2.018528763447897,1.615809440612793,-2.750073258076803,-0.8781665007220667,0.01169735286384821,0.0,0.0,0.0,0.0,0.0,0.0,0.0009227608835124189,0.00043926874995537437,0.0003149799206307751,-0.00016647284081037033,0.001856203856377202,-0.0004760586281424207,False
-0.3264546519786823,-0.44544888942669064,1.0616131844038639,-0.7269688681057219,-1.7541213678542527,1.775393742295634,0.09078911691904068,-2.018540684376852,1.6157736778259277,-2.750049416218893,-0.8782022635089319,0.011685368604958057,0.0,0.0,0.0,0.0,0.0,0.0,0.001660986208106509,0.000790636616051696,0.0005669196693507526,-0.0002995887674241929,0.003341172627283703,-0.0008569056794780328,False
-0.32647288178502637,-0.4454285255905651,1.061607963791384,-0.7270827237448185,-1.7540694876406722,1.7753860737243954,0.09074117988348007,-2.01856500307192,1.615809440612793,-2.750061337147848,-0.8782261053668421,0.011745289899408817,-0.001400721593238221,0.0010266464513396262,0.0,0.0,0.0,-0.003144660731777549,0.001149590689637792,0.0005471020401789746,0.00039227474166511985,-0.00020722105300344232,0.002312415628522047,-0.0005930593008157603,False
-0.32645930852328875,-0.44544988621179105,1.0615902014264906,-0.7270182746236595,-1.7541534173609252,1.7754112372647233,0.09078911691904068,-2.018552605305807,1.615821361541748,-2.750049416218893,-0.8781903425799769,0.011709337122738361,0.000199299206226487,-0.00014606150561009406,0.0,0.0,0.0,0.0004474110610317439,-5.3079716313407716e-05,-5.5801378570762984e-05,-9.595696707757039e-07,-3.6366280875852244e-08,-3.598410853570102e-08,-1.1389209871946008e-07,False
-0.32669265545610515,-0.4457101535677853,1.0616098178605937,-0.727017888914738,-1.7540694990848305,1.775413075409466,0.09173587709665298,-2.0179293791400355,1.6154980659484863,-2.7504094282733362,-0.8791845480548304,0.011721321381628513,-0.01581645093918209,-0.018788758071887634,0.00023865921627252155,-0.0012301293625293864,0.0020094291504527194,0.0015510443470575785,-0.02130877970014541,-0.022401387302016268,-0.0003852179351556033,-1.4599193962412443e-05,-1.4445771141504467e-05,-4.572182763706342e-05,False
-0.3268914469891038,-0.4458864492465412,1.0615665939255794,-0.7271048111408152,-1.754124178733274,1.7754084789525453,0.09234669804573059,-2.0174978415118616,1.615354061126709,-2.750613514577047,-0.8797958532916468,0.011721321381628513,-0.024778506557592613,-0.026446181009501885,-0.0019116587806965197,-0.0008567946533475913,-0.005409301719394243,0.0049265970528374475,-0.0286198020983968,-0.030087282346367566,-0.0005173858485672585,-1.9608163761638316e-05,-1.9402101698463414e-05,-6.140894394499882e-05,False
-0.3270700846357005,-0.4461326579403062,1.0615924146294053,-0.7270483488902797,-1.7541079508168445,1.7754356369775142,0.09322154521942139,-2.0169461409198206,1.6150422096252441,-2.7508891264544886,-0.8806465307818812,0.011709337122738361,-0.032113113805217565,-0.03541486274629989,-0.0015328747598174581,-0.0012708299839087462,-0.006078932028326787,0.0054809723196547755,-0.03714375085411385,-0.039048296541706745,-0.0006714809202275117,-2.5448140653367172e-05,-2.5180706281344688e-05,-7.969861235414984e-05,False
-0.327343483753401,-0.44645605996319515,1.0615862586271128,-0.7270454172084471,-1.7541568968663308,1.7754700274043627,0.09434731304645538,-2.016202751790182,1.614682674407959,-2.751237217579977,-0.8817246595965784,0.01169735286384821,-0.04243793080874864,-0.0460844383722013,-0.003505084381053408,-0.001316601134193023,-0.010723890637713465,0.009112455648750822,-0.046963325491798685,-0.049371369829604245,-0.0008489981835926439,-3.217578421091079e-05,-3.183764901190916e-05,-0.00010076827958517915,False
-0.32777315833912823,-0.4468658626633975,1.0615596052362843,-0.7271766285625407,-1.754238727412563,1.775487973982454,0.09576144814491272,-2.015183750783102,1.6142148971557617,-2.751669232045309,-0.8831265608416956,0.011709337122738361,-0.05375203054571845,-0.057138808932984175,-0.003037303881101641,-0.0018671500579993399,-0.010967746175873715,0.008838027076586652,-0.0581612255360111,-0.06114344215126807,-0.0010514326720692784,-3.9847754001724744e-05,-3.942899400484522e-05,-0.00012479539235022628,False
-0.3282036960312449,-0.4473902075412828,1.0615573513119139,-0.7271399141438767,-1.7542612426205164,1.7755724273358866,0.09758267551660538,-2.013984982167379,1.6136393547058105,-2.7523048559771937,-0.8848760763751429,0.011721321381628513,-0.06691415490737106,-0.06976918074381999,-0.0023545080829922927,-0.0026515450569901907,-0.010364946974036813,0.0053526780817275965,-0.07082015051142394,-0.07445145344745067,-0.0012802794190180423,-4.852070960079764e-05,-4.801080536340728e-05,-0.00015195739735438028,False
-0.32880551276509723,-0.44799478837397333,1.0615199803513775,-0.7272329353329614,-1.7543185217005228,1.7755291625343066,0.09966718405485153,-2.01252252260317,1.6129555702209473,-2.752964798604147,-0.8869846502887171,0.011661400087177753,-0.08047465129486954,-0.0831239383443697,-0.002494990217060459,0.0018213414842699217,-0.005991794207917881,0.0014735705663919694,-0.08502279994283894,-0.08938234365844129,-0.001537033457739135,-5.825131057273728e-05,-5.763914718039283e-05,-0.0001824317412854407,False
-0.3295311866019273,-0.448713618032643,1.0615032090113359,-0.7273678479578307,-1.7543223767343707,1.7754804379511382,0.1021471694111824,-2.0107601324664515,1.6120924949645996,-2.7537687460528772,-0.8895366827594202,0.011625447310507298,-0.09487124196652003,-0.09800369855785734,-0.0011450253791097514,-0.0008871938646828298,-0.0036629057159494804,0.0005966976606822502,-0.09604940319546129,-0.10097433592740716,-0.001736371258521269,-6.580592046050594e-05,-6.511436526651909e-05,-0.00020609130555008842,False
-0.33033822752738723,-0.449539738491603,1.0615039385507157,-0.7274347796675419,-1.754254184878138,1.7754438256969016,0.10498668253421783,-2.0087459723102015,1.6110854148864746,-2.7547643820392054,-0.8924601713763636,0.011589120142161846,-0.10363971054344168,-0.1089993209943684,0.00153400990517282,-0.0035078021220676324,3.992708842077671e-05,0.0027376170188700114,-0.10707600645017638,-0.1125663281874834,-0.0019357090582653965,-7.336053032321304e-05,-7.258958313652569e-05,-0.00022975086961666842,False
-0.33116807870857545,-0.45047780015349426,1.0615046491318534,-0.7273666111726689,-1.7542274509380802,1.7754139979555108,0.10817410796880722,-2.006552044545309,1.6099705696105957,-2.7558444182025355,-0.8956592718707483,0.011481262743473053,-0.1136336375107021,-0.12245087621170594,-0.0007913193179882201,0.001515612453860166,0.0005438801555941227,0.007927823299205146,-0.11810260970548085,-0.1241583204456445,-0.0021350468577950774,-8.091514019034456e-05,-8.006480096128896e-05,-0.00025341043364873967,False
-0.3322180806665518,-0.4514931476041269,1.0614668950771533,-0.7275224159371508,-1.7542888945410913,1.7754268262975395,0.11154055595397949,-2.0040229002581995,1.6087474822998047,-2.757019821797506,-0.8990376631366175,0.011469278484582901,-0.12711109615646107,-0.13331271158951447,-0.0030858811059506852,-0.0027027376710861625,-0.007144861251603086,0.007532331119845166,-0.12912921296132807,-0.13575031270233953,-0.002334384657161518,-8.8469750068371e-05,-8.754001875675276e-05,-0.00027706999766024246,False
-0.33330687492673694,-0.45260062893670905,1.0614294822507089,-0.7275272618669878,-1.7543211745480587,1.775380366235132,0.11518301069736481,-2.0013249556170862,1.6074166297912598,-2.758303944264547,-0.9026921431170862,0.011349061504006386,-0.14017532711189232,-0.1442037138388411,-0.005398711831011042,0.006853409160918181,0.0010919630453111503,0.001383955493192009,-0.14015581621765896,-0.14734230495786366,-0.0025337224564073047,-9.602435995542235e-05,-9.501523653422661e-05,-0.00030072956166049016,False
-0.33451794453257105,-0.45380719484159,1.0613840495576223,-0.7275958297372421,-1.7543575925703072,1.7753669607410432,0.11910072714090347,-1.9983633200274866,1.6059660911560059,-2.759719196950094,-0.9066222349749964,0.011277155950665474,-0.15265052344313623,-0.15665172684081022,-0.0052845698397016245,-0.0005819755604996877,-0.011953582614614905,0.002405791771506148,-0.15118241947442979,-0.15893429721259336,-0.0027330602555728596,-0.00010357896986004037,-0.00010249045430828479,-0.0003243891256632694,False
-0.33580777439418785,-0.4550979251374051,1.0613166794514335,-0.7277534093195377,-1.7544462284226825,1.7753319800598981,0.12324614822864532,-1.995234791432516,1.604443073272705,-2.761146847401754,-0.9107921759234827,0.011205250397324562,-0.1627189705572736,-0.16921933914728565,-0.006561045917335173,0.004952691829742064,-0.0013136455289400242,0.005007331392217673,-0.16220902273158544,-0.1705262894668367,-0.0029323980546953486,-0.00011113357977933502,-0.00010996567209128026,-0.00034804868968327246,False
-0.33716308922218297,-0.4565013889809082,1.061273676310343,-0.7277200182837446,-1.7545045689554941,1.7753455492017658,0.12767955660820007,-1.9918416182147425,1.6027402877807617,-2.76276666322817,-0.9151766935931605,0.011097017675638199,-0.1743458333796889,-0.17905088062782795,-0.004816977291397673,0.0006065371897696062,-0.002486868153430093,-9.805684469611706e-05,-0.1732356259890563,-0.18211828172096323,-0.003131735853810768,-0.00011868818971606451,-0.00011744088989133934,-0.0003717082537230941,False
-0.3386130053095797,-0.45800606887422524,1.061210075540864,-0.7277751558202533,-1.7546195266554336,1.7753107696148962,0.13237625360488892,-1.9882453123675745,1.6009302139282227,-2.764386002217428,-0.9198492209063929,0.010965191759169102,-0.18122205062465008,-0.1921364625257858,-0.0034306710541626376,0.0011365250665003098,0.001005763675400919,0.0020449776696407334,-0.18426222924679775,-0.1937102739752362,-0.003331073652952129,-0.0001262427996715186,-0.00012491610771970217,-0.0003953678177965758,False
-0.3400062679414856,-0.4596875320330379,1.0611570138111728,-0.7277009308462861,-1.7548016650074356,1.775448931153978,0.1375882625579834,-1.9844806830035608,1.5990238189697266,-2.7661379019366663,-0.9248579184161585,0.01089328620582819,-0.19238664864933278,-0.20358237664864126,-0.0018933221082237622,0.0023716613841050244,0.005080629491452257,0.0014947193569362074,-0.1952888325047129,-0.20530226622996509,-0.0035304114521500533,-0.00013379740964550302,-0.0001323913255851638,-0.0004190273819100081,False
-0.34160141312792525,-0.4613493603831025,1.061150745347255,-0.7276210922466105,-1.7547155970982333,1.775475209817589,0.1426444947719574,-1.980464283620016,1.5969133377075195,-2.7681053320514124,-0.9299257437335413,0.010809396393597126,-0.204130762382952,-0.21458970959396503,-0.003302326551717115,-0.00025635487535455824,0.003358873605123573,0.0030415999666185333,-0.2063154357627486,-0.2168942584854423,-0.0037297492514286237,-0.00014135201963837163,-0.00013986654349308625,-0.00044268694606857127,False
-0.343253543593575,-0.4631221813884919,1.061127479055098,-0.7275200245712247,-1.7547432912391523,1.7755015689469762,0.14794039726257324,-1.9762566725360315,1.5946836471557617,-2.770060364400045,-0.9351614157306116,0.010677196085453033,-0.21870247650808564,-0.2272982086277559,-0.005293548713877498,0.0012662210291757674,-0.0007333771318736148,-0.0015076109493589154,-0.2173420390208137,-0.22848625074189405,-0.00392908705081437,-0.00014890662964856492,-0.00014734176144707428,-0.00046634651027638806,False
-0.34498036976924557,-0.4649751677165694,1.0611205354564122,-0.7273645277061561,-1.7546391864086286,1.7755002420695944,0.15341567993164062,-1.971856419240133,1.5923213958740234,-2.772184197102682,-0.9406493345843714,0.01053338497877121,-0.22677770142669412,-0.23803847185042656,-0.00415344477991814,0.0019737134172789442,0.003384615552330066,9.990376297907741e-05,-0.22836864227883574,-0.24007824299954822,-0.004128424850324966,-0.00015646123967768752,-0.0001548169794534683,-0.0004900060745387984,False
-0.3467681605067849,-0.4669464063692388,1.0611324469020724,-0.7271647128914982,-1.7546328979694261,1.7756529086588975,0.15910744667053223,-1.9672048727618616,1.5897798538208008,-2.774379555379049,-0.9461963812457483,0.010461479425430298,-0.23462300637990233,-0.25090105102663784,-0.00231572049534558,-2.1297745442201005e-05,0.007517587896287502,0.0055629609419134635,-0.23939524553674496,-0.2516702352586082,-0.004327762649977099,-0.00016401584972406714,-0.00016229219751258926,-0.00051366563885511,False
-0.3487023899625585,-0.4690182523173762,1.0611558707969926,-0.7270681669095617,-1.7545171660486967,1.7756586320718453,0.16502653062343597,-1.9622896353351038,1.587033748626709,-2.776623074208395,-0.952151123677389,0.010341262444853783,-0.24485542225234636,-0.25956073050237677,0.0026068533205631916,-0.0036392013446149545,0.01355210884262506,-0.0054073711755906265,-0.24898613586256693,-0.25913077973015225,-0.004313160324537284,-0.00010950297894310977,-0.00019763789592391195,-0.000475148163124552,False
-0.3506652378607777,-0.47114491891875554,1.0612072711199814,-0.7269108693321444,-1.7543252344276288,1.7757055188713589,0.17100515961647034,-1.9572537581073206,1.5841684341430664,-2.7789629141436976,-0.958165470753805,0.010245389305055141,-0.2505479298101247,-0.2678089250523026,0.0007897982571354861,0.001034838582805401,0.012912560961617513,0.00396968485744237,-0.25291116497721067,-0.25066199042327136,-0.003481147952645227,0.0001812176653495888,-0.0003388468102429997,-0.00019970634870353416,False
-0.3527613408003067,-0.4732385154635592,1.0611958371569203,-0.7268593118652362,-1.754371668328826,1.7757864165801651,0.17663699388504028,-1.952122990285055,1.5812907218933105,-2.7811816374408167,-0.9637129942523401,0.010161499492824078,-0.254913952558949,-0.2499807783553105,0.0011292959803484981,-0.00391467130714023,0.004894607593873659,0.0022281934385079563,-0.2564963807395895,-0.24183596383570674,-0.0026429924698019294,0.000472171124524556,-0.00047982535632909613,7.646459651568948e-05,False
-0.35488144441702896,-0.4751924990375664,1.061088341623066,-0.7269672559428123,-1.754628407911426,1.7757902575530302,0.18168123066425323,-1.947207276021139,1.5786170959472656,-2.783149544392721,-0.9686492125140589,0.010041656903922558,-0.2623139323564479,-0.2387251280129236,-0.00237276060240906,0.0037588432547252144,0.0035892160825690255,-0.0037389723663212656,-0.2533093146511371,-0.22589040666969948,-0.0016824083698277882,0.0007677644484745307,-0.0006162127979406403,0.0003671666931166782,False
-0.35704312466127663,-0.4770165398053854,1.0609608815592162,-0.7271872907162353,-1.7547315731578452,1.775697978201673,0.18627044558525085,-1.9424355665790003,1.5760512351989746,-2.785128895436422,-0.973309342061178,0.009945783764123917,-0.26010232269970646,-0.2194922501620528,-0.008017049893372718,0.0033118066675663924,-0.010798657731088512,-0.004184106037966841,-0.24683828082991888,-0.2064924963372072,-0.0006624570377913054,0.0010656077033254201,-0.0007503739531549876,0.0006649151344067536,False
-0.359309033121444,-0.4787133781360109,1.0607467432492936,-0.7276821157223281,-1.755104750333221,1.7754927396090197,0.19030800461769104,-1.9377720991717737,1.5735931396484375,-2.7867725531207483,-0.9774192015277308,0.009825566783547401,-0.2574691322914859,-0.19550790493113862,-0.006269340122018114,0.006507044347184114,-0.012683344091251532,-0.016668056126178464,-0.24070706036096562,-0.18745182328539936,0.00035135118329404896,0.0013632181432937963,-0.0008847654766023574,0.0009619344449017267,False
-0.3614202024007398,-0.4801914450313356,1.0606181742585254,-0.7280020357892193,-1.7552234849198023,1.7752727519807414,0.19372312724590302,-1.9334920088397425,1.5712313652038574,-2.788379971181051,-0.9810016790973108,0.00969373993575573,-0.24895944832944122,-0.1760324913946376,-0.009213810868760254,0.005241249629282517,-0.013759050185496382,-0.014893025361269593,-0.23491565324427802,-0.16876838751427595,0.0013590162934283099,0.0016605957683797816,-0.0010193873682827837,0.0012582246245996494,False
-0.3633861260344447,-0.48152565341548625,1.060540256010978,-0.7281174199313226,-1.7553476199481877,1.7751601490305198,0.19667087495326996,-1.9294870535479944,1.5689411163330078,-2.789892021809713,-0.9839847723590296,0.009561914019286633,-0.24027189004607571,-0.15707411767387083,-0.004626370200834049,0.007352542092278875,-0.0065123076643270866,-0.011895221252685554,-0.22946405947985518,-0.15044218902383538,0.0023605382926119934,0.001957740578583292,-0.0011542396281965066,0.0015537856735003135,False
-0.3653186455183092,-0.48272520520463713,1.0605037916278366,-0.7283699092372794,-1.7553994705947358,1.7750720626244183,0.19922275841236115,-1.9256752173053187,1.5666990280151367,-2.79128343263735,-0.9866450468646448,0.009537945501506329,-0.23269662606547567,-0.1376159624512903,0.00013937402268723962,0.0017556121459527969,-0.003828389077994313,-0.012062791533637908,-0.22435227906769822,-0.13247322781407903,0.0033559171808444466,0.002254652573904163,-0.0012893222563420959,0.0018486175916034302,False
-0.36707767561822685,-0.4837235920981746,1.060559434492392,-0.7283376199072391,-1.7552906050771033,1.774980619286925,0.20122413337230682,-1.9222219626056116,1.5645170211791992,-2.792590920125143,-0.988753620778219,0.009429712779819965,-0.22224575861200052,-0.11851767461457348,0.0063345135179145,0.003007889065019376,0.006101582458060629,-0.009657817417942485,-0.2195803120078063,-0.11486150388500681,0.004345152958126182,0.0025513317543425854,-0.0014246352527213088,0.0021427203789096444,False
-0.3687507670456033,-0.484550978363284,1.0607026008392808,-0.7282253810148185,-1.7550795775727848,1.774986423433563,0.20273377001285553,-1.9189966360675257,1.5623469352722168,-2.793826405202047,-0.9903472105609339,0.00939376000314951,-0.2191006603702561,-0.10036836375975666,0.010017645043437771,-0.000735463704985808,0.010951961890404602,-0.008527786825691192,-0.21514815830017997,-0.0976070172366183,0.005328245624456818,0.002847778119898771,-0.0015601786173332069,0.0024360940354189583,False
-0.3703419882706539,-0.48525931720464266,1.0609045713342644,-0.7279833392771066,-1.7548459338288558,1.775024173956377,0.20389586687088013,-1.9159515539752405,1.5601768493652344,-2.7949541250811976,-0.9915450255023401,0.009333464317023754,-0.21184774793698846,-0.0831332943865671,0.013536575385921703,-0.0018095109191065416,0.010996808223336362,-0.005999680063915838,-0.21105581794481887,-0.08070976786891355,0.006305195179836538,0.003143991670572154,-0.001695952350177947,0.0027287385611310102,False
-0.3719233994532651,-0.48585647932322196,1.0610807011633097,-0.727808319927103,-1.7546850534272915,1.7750704973296032,0.20471079647541046,-1.9130623976336878,1.558126449584961,-2.795974079762594,-0.9923713842975062,0.009297511540353298,-0.20476329969673304,-0.06694046510063642,0.014557833891683605,0.0018573566602219718,0.016649438149140362,-0.006157030695094392,-0.20730329094172284,-0.06416975578189286,0.0072760016242654135,0.0034399724063632862,-0.0018319564512554497,0.003020653956046367,False
-0.3733867823381496,-0.4863111854757815,1.0613208140198511,-0.7273771542793833,-1.7544607159034113,1.7752392709672078,0.20511788129806519,-1.9103887716876429,1.5561237335205078,-2.7970059553729456,-0.9926713148700159,0.009261558763682842,-0.19678176209638792,-0.04924087847847887,0.01820484881594909,-0.00351935764656876,0.019824011240800573,-0.0015682082288148553,-0.2038905772908919,-0.04798698097555596,0.008240664957743402,0.003735720327271698,-0.0019681909205660235,0.0033118402201646265,False
-0.37494651790735983,-0.48663869213940913,1.0614514939902409,-0.7272078949796769,-1.7543879039116164,1.7753252913019315,0.20510590076446533,-1.907834831868307,1.554337501525879,-2.797905747090475,-0.9925993124591272,0.00924957450479269,-0.19321365426104417,-0.034014936432935315,0.015733081412976014,-0.0009262542893290261,0.014029926162093576,0.003931656784049758,-0.20081767699232628,-0.0321614434499028,0.009199185180270542,0.004031235433297822,-0.002104655758108886,0.0036022973534858152,False
-0.37650780453156985,-0.48686510778176906,1.061525073746041,-0.7271645575221336,-1.75441145507098,1.7752403890192086,0.20481865108013153,-1.9054611364947718,1.5526947975158691,-2.798589531575338,-0.9923356215106409,0.009141717106103897,-0.19343347836862584,-0.02045766463727956,0.011732565929443266,0.005650116020303097,0.009412405212226868,0.007035652770721212,-0.19936428591554198,-0.018038455475568933,0.010128428081088119,0.004325640971831331,-0.002242218502709119,0.0038892795378629454,False
-0.3781218105790841,-0.4869387545351818,1.0616194768816392,-0.7273009792746036,-1.7543721403144072,1.7751751436265168,0.2040995955467224,-1.9031952063189905,1.5510997772216797,-2.799213711415426,-0.9917247931109827,0.009153701364994049,-0.19593261784113528,-0.006095191280379074,0.013228400404291006,0.001394200580541535,0.003395069912047063,0.004756633692527703,-0.19965621012230056,-0.005750273819681618,0.011026119351107004,0.0046188507498986205,-0.002380964441539477,0.004172516833714122,False
-0.3797231008579987,-0.4869431230609426,1.0616954835696037,-0.7271612617895287,-1.7544401369709552,1.775178920489285,0.20310528576374054,-1.9009650389300745,1.5495414733886719,-2.799873177205221,-0.9906461874591272,0.009069811552762985,-0.20214412396992507,0.006152114013346056,0.012525618636157377,0.002208460494070075,-0.002612535933327206,-0.003889801253144095,-0.1999481343290592,0.006537907836205645,0.011923810621125729,0.0049120605279657625,-0.002519710380369804,0.0044557541295652935,False
-0.38135108045074956,-0.4868518701554925,1.0617830931657275,-0.7271652199806813,-1.7544960065654265,1.7751511973682097,0.20185892283916473,-1.8988192717181605,1.5480070114135742,-2.800424400960104,-0.9893882910357874,0.00903385877609253,-0.20114209181052622,0.017825787327023203,0.012782002938706193,0.007017793941230622,0.0026097542792962634,0.00048815646569128036,-0.2002400585358177,0.018826089492092943,0.012821501891144595,0.005205270306032897,-0.002658456319200166,0.004738991425416662,False
-0.38300255062343774,-0.4866599946054139,1.0618727676232185,-0.7272647863237458,-1.7545904362474858,1.7751205128600076,0.20032531023025513,-1.896756951008932,1.5465083122253418,-2.800868336354391,-0.9878547827350062,0.00903385877609253,-0.20247896387827163,0.029780847914942104,0.01362538046137841,0.004041729425093059,-0.004963130375312649,-0.001706140694364932,-0.20053198274257625,0.031114271147980307,0.013719193161163355,0.005498480084100247,-0.0027972022580303093,0.005022228721267816,False
-0.3846557688426774,-0.4863581615422352,1.061969764364391,-0.7272636920719046,-1.7546822180161332,1.7750966286024399,0.1984681338071823,-1.8947790304767054,1.5450448989868164,-2.801300827656881,-0.9859617392169397,0.008997531607747078,-0.20359780776083458,0.04148685968606556,0.011801127626415902,0.004141147032127371,-0.00807545069843805,0.0019205052095301472,-0.20082390694933475,0.043402452803867696,0.014616884431182248,0.005791689862167263,-0.0029359481968606626,0.0053054660171190995,False
-0.3862573608747337,-0.48597948970784416,1.0620451848867045,-0.7272136760016188,-1.7548472689419141,1.7750756597351893,0.19640721380710602,-1.892944637929098,1.5436902046203613,-2.8016603628741663,-0.983805004750387,0.008925626054406166,-0.20290237600700028,0.053471278846413645,0.01237188996830168,0.010059992549340771,-0.00133233830990394,0.002607156487803313,-0.20111583115609324,0.055690634459754994,0.015514575701201237,0.006084899640234351,-0.0030746941356905788,0.0055887033129703055,False
-0.38790499640066606,-0.4855011239516546,1.0621513123883342,-0.7272525135041134,-1.7549513228290838,1.7750408479741941,0.19408266246318817,-1.891146485005514,1.542311191558838,-2.8019726912127894,-0.9814570585833948,0.008901657536625862,-0.2061872499467014,0.06519794689561297,0.01287079615776001,0.006571388404555047,-0.010303235605573176,0.0005175407730760638,-0.20140775536285163,0.06797881611564219,0.01641226697122001,0.006378109418301612,-0.003213440074520936,0.0058719406088216545,False
-0.3895355190612392,-0.4849199237870779,1.0622470913360693,-0.7272726162071185,-1.755063378820002,1.775030239013572,0.19148245453834534,-1.8894675413714808,1.5410284996032715,-2.802272621785299,-0.9788087050067347,0.00888967327773571,-0.20563200033879,0.07943004868605022,0.013694372809082764,0.006332098079250895,-0.012746930116517842,0.0004170371930055247,-0.20169967956961043,0.08026699777152953,0.017309958241238665,0.0066713191963687826,-0.0033521860133512832,0.006155177904672753,False
-0.3911648964706763,-0.4842291012616041,1.0623804204164053,-0.7272613133374428,-1.7551524732354358,1.7749807697702733,0.18859462440013885,-1.8878734747516077,1.5397214889526367,-2.802476231251852,-0.9758976141559046,0.008841736242175102,-0.20487602482506573,0.09082728232618335,0.014552892198319949,0.010810698909322146,-0.007502340376157853,0.0044750022013602,-0.20199160377636863,0.0925551794274165,0.018207649511257647,0.006964528974436038,-0.0034909319521816214,0.006438415200524054,False
-0.39273437084268964,-0.4834483386111627,1.0625431343260585,-0.727241042351849,-1.7552880586022752,1.7750076646450494,0.18547947704792023,-1.8864105383502405,1.5384507179260254,-2.8025839964496058,-0.9726865927325647,0.008841736242175102,-0.20028617616829716,0.10284496138109657,0.021082862066902963,0.006279900063219951,-0.0027949978429385107,0.006746774323754354,-0.20228352798312715,0.1048433610833042,0.01910534078127644,0.007257738752503195,-0.003629677891011737,0.006721652496375423,False
-0.3942248528776539,-0.48258127742747214,1.0627609026474094,-0.7269822452357715,-1.7553160077529306,1.775085851327229,0.18216022849082947,-1.8850558439837855,1.537179946899414,-2.8027642408954065,-0.9692242781268519,0.008805784396827221,-0.20077666751830775,0.11484856318989449,0.021843148025028233,0.005165801646148491,-0.002392459956084775,0.00568041090990195,-0.20257545218988568,0.11713154273919135,0.02000303205129518,0.007550948530570369,-0.0037684238298422764,0.0070048897922267905,False
-0.3957964290208842,-0.4816296203475204,1.0629467636018752,-0.7268927909861509,-1.7554321878743706,1.7750488503115518,0.17860165238380432,-1.8837249914752405,1.5359325408935547,-2.8027761618243616,-0.9655941168414515,0.008733878843486309,-0.20094936402474453,0.12805692990924833,0.022863109141806368,0.011467415975127612,0.005447506092977319,0.004200246087369404,-0.20286737639664418,0.1294197243950788,0.020900723321314117,0.00784415830863756,-0.003907169768672203,0.00728812708807757,False
-0.3973972264121877,-0.4805308541798846,1.0631621220504022,-0.7268278396439875,-1.755451219777044,1.7750194615244692,0.1746595948934555,-1.8824780623065394,1.5347094535827637,-2.802800003682272,-0.961639706288473,0.008709910325706005,-0.20137657818248492,0.14060853940879653,0.02420929044540972,0.006708404970863202,0.0015334735048970934,0.006288188818711772,-0.20315930060340262,0.1417079060509662,0.021798414591333023,0.00813736808670479,-0.004045915707502271,0.00757136438392922,False
-0.39896132123830075,-0.4793492931943998,1.0633706386156285,-0.7266884810177295,-1.755533852540098,1.7750491111849103,0.1704898327589035,-1.881326977406637,1.5335583686828613,-2.802800003682272,-0.9573629538165491,0.008685941807925701,-0.20158398280241996,0.15262790578955915,0.024541675819928176,0.006640312755759886,-0.00380274065146367,0.0070317251927067715,-0.20345122481016126,0.1539960877068535,0.022696105861351748,0.008430577864771836,-0.004184661646332749,0.007854601679780386,False
-0.40053585356574106,-0.47808969043786687,1.0635908487420838,-0.726525110926588,-1.7556835113865081,1.7751264839128646,0.16609275341033936,-1.880200211201803,1.532395839691162,-2.8027403990374964,-0.9527857939349573,0.00867395754903555,-0.20439628347912167,0.16574949279704937,0.02514470958776967,0.009600708705294614,-0.00013016625898052032,0.0019593677348224577,-0.20374314901691984,0.1662842693627407,0.023593797131370716,0.008723787642838923,-0.004323407585162738,0.008137838975631612,False
-0.4021691472306143,-0.47667735922316834,1.0637894434668012,-0.7264622608640756,-1.7557726020751172,1.7750472882656314,0.16131216287612915,-1.879181210194723,1.5313167572021484,-2.802608315144674,-0.9479816595660608,0.008601677604019642,-0.20700258494186308,0.17737832654818303,0.022259168738148413,0.010795226435533474,-0.00960821207306125,0.0030284928172470203,-0.20403507322367825,0.17857245101862787,0.024491488401389434,0.009016997420906218,-0.00446215352399312,0.00842107627148254,False
-0.4038357156126376,-0.47518919189909264,1.0639845568686384,-0.7264739390695858,-1.7558907862295252,1.7750247241638692,0.15632747113704681,-1.878174130116598,1.5302610397338867,-2.802464310322897,-0.9429495970355433,0.008601677604019642,-0.20623956256836815,0.1880806204072366,0.02437704506721866,0.008805788591572855,-0.010995670511193698,0.0071305238094818675,-0.20432699743043647,0.19086063267451533,0.025389179671408385,0.00931020719897339,-0.004600899462823544,0.008704313567334409,False
-0.4055680080055663,-0.4736229550485384,1.0641511146631872,-0.7265679988510076,-1.756061150445213,1.774872393174882,0.15113943815231323,-1.8771784941302698,1.5292181968688965,-2.8022001425372522,-0.9377854506122034,0.008517787791788578,-0.20982416212436317,0.20251330821194455,0.02361239709362258,0.01485862450466142,-0.0061134530603013885,-0.0012730937058169178,-0.20439729664932743,0.19381978971594585,0.025605355629503404,0.00938081600047722,-0.0046343113241838945,0.008772520862919611,False
-0.4072527397874718,-0.47197876857615917,1.0643595796028644,-0.7266909731588675,-1.7560251834128242,1.7747319919508455,0.14583154022693634,-1.876291577016012,1.5282225608825684,-2.8020322958575647,-0.9326217810260218,0.008517787791788578,-0.20864393190364286,0.1998686265755223,0.02191216439476768,0.009990672745934492,-0.01057248808650638,0.004053038787653273,-0.2079356038376121,0.1971749904276284,0.02604860813512663,0.009543206644730268,-0.004714535560707177,0.008924381352943532,False
-0.4089344465727372,-0.470396716637734,1.064483123055128,-0.7267441029932585,-1.7562496533919278,1.7746267471700858,0.1406554877758026,-1.8753441015826624,1.5272879600524902,-2.8018162886248987,-0.9273980299579065,0.008433898910880089,-0.21364662184334482,0.20268957480157462,0.0225896165742972,0.012692499155664939,-0.011200273882898005,0.005662850967426622,-0.21449806099896723,0.21313909343853227,0.02763467892460292,0.010079764982242022,-0.004979899665835677,0.009422453517562532,False
-0.4105526744226898,-0.4687528334859336,1.0647214679560513,-0.7265175415692873,-1.756534099386308,1.7747647315711101,0.13527606427669525,-1.8743613401996058,1.526160717010498,-2.801588837300436,-0.921706501637594,0.008409930393099785,-0.2170584504155025,0.22325262083301442,0.027332446397072645,0.012635703576144863,-0.005958072184276114,0.01236282687730674,-0.2260605181603223,0.22410319644943585,0.029078549853377024,0.010610418432167819,-0.005241977725383919,0.009918751493990154,False
-0.4122424400138429,-0.4668903713865848,1.0650198930527837,-0.7261288958444061,-1.756592293699711,1.7748220721136692,0.12932102382183075,-1.8734143416034144,1.5249738693237305,-2.8014681974994105,-0.9155600706683558,0.008326040580868721,-0.23161958795116455,0.23522716452436102,0.031280905117914135,0.009741967182734,-0.002197645431412073,0.008965542178824743,-0.2376229753216773,0.23506729946033944,0.030521655860281015,0.011141069604950402,-0.00550404038950862,0.010415058880145663,False
-0.4140995932995813,-0.46494854946357655,1.0653149433958378,-0.7258795677241111,-1.7566024107911713,1.7747564187967737,0.1231626346707344,-1.8723233381854456,1.5236787796020508,-2.8013246695147913,-0.9093540350543421,0.008218182250857353,-0.2403172681581809,0.24547982916991185,0.03615630684858661,0.014514027761962759,0.007530753469073349,0.011158839320414522,-0.2491854324830321,0.24603140247124333,0.03196497083278523,0.011671719193427705,-0.005766103386764706,0.01091136566327534,False
-0.41607574236696704,-0.46294368695192556,1.065683468418457,-0.7258332638015716,-1.7566269561580068,1.7747337846904068,0.11684806644916534,-1.8710764090167444,1.52215576171875,-2.8010485808001917,-0.9030278364764612,0.008230166509747505,-0.255610613459294,0.25731664916722524,0.038660730794999355,0.010205702357927712,-0.0015905791641712217,0.0019540047673495134,-0.2607478896443877,0.2569955054821471,0.033408492904817795,0.012202367168136379,-0.00602816674258586,0.011407671813456137,False
-0.41811864689493605,-0.46083599430982763,1.0660021553675358,-0.7256450465304966,-1.7567259438973002,1.7746803571871763,0.11023464798927307,-1.8697932402240198,1.5206694602966309,-2.8008206526385706,-0.8963301817523401,0.008133918046951294,-0.26568834627278143,0.2667163307416871,0.035575006169657045,0.016766158519861234,0.002108842772337316,0.01072945757795036,-0.272310346805742,0.2679596084930505,0.03485221377994037,0.012733013546511344,-0.006290230474258869,0.011903977317403785,False
-0.420244479576096,-0.45866396977746404,1.0663040946914233,-0.7253710070501108,-1.7569726198061633,1.7747863517022169,0.10340514034032822,-1.868366543446676,1.51912260055542,-2.800652805958883,-0.8892133871661585,0.008085981011390686,-0.2792389641970069,0.2788146704444333,0.03645894195137655,0.014876331191670922,-0.003708060626572849,0.008372329933805399,-0.28387280396709813,0.27892371150395395,0.0362961254506986,0.013263658346295584,-0.0065522945989584325,0.0124002821620718,False
-0.4225618203226158,-0.4563914059332076,1.066568749838151,-0.7252115094425132,-1.7571841635156558,1.7747216938057213,0.09633632004261017,-1.8667839209186,1.5175037384033203,-2.8004844824420374,-0.8820121924029749,0.007954155094921589,-0.28752776625024695,0.28749708032548427,0.03858030586679762,0.01631051749162915,0.0032413336323114618,0.017056605790156623,-0.29543526112845264,0.28988781451485784,0.0377402202318693,0.013794301585473515,-0.0068143591336677295,0.012896586334739663,False
-0.42502893884670245,-0.454006555713604,1.0668366340591782,-0.7252933160930172,-1.7573995633372916,1.7745837635760708,0.08901620656251907,-1.8650935331927698,1.5157890319824219,-2.800209347401754,-0.8746798674212855,0.007858281023800373,-0.30546228905685147,0.30174972924853444,0.03859457627929272,0.01738901058654858,-0.005468405604459485,0.002177853610507707,-0.3069977182898074,0.30085191752576185,0.03918449074779135,0.014324943282253382,-0.007076424095182881,0.013392889823004296,False
-0.4276134950441365,-0.451587007411121,1.0670922712193516,-0.7254446697253545,-1.757593117473331,1.7743810367172537,0.08165938407182693,-1.8632472197162073,1.5139789581298828,-2.7999571005450647,-0.8673833052264612,0.007738064508885145,-0.3201614676801293,0.31100495840865766,0.03779919834369055,0.01637932924217351,-0.017272397969031635,0.010202905434328639,-0.3185601754511622,0.31181602053666546,0.040628929919896715,0.014855583455070275,-0.0073384895000863665,0.013889192614779966,False
-0.430298278431738,-0.44905019476528785,1.06733781501794,-0.7255878199000096,-1.757921360429367,1.77427325227775,0.07399173080921173,-1.8612807432757776,1.5120959281921387,-2.799681011830465,-0.8596428076373499,0.007642190437763929,-0.333806350179134,0.32352871080099027,0.037756159760205694,0.019599949730544415,-0.011585193492550239,0.004278229083954051,-0.33012263261251745,0.3227801235475689,0.04207353095474427,0.015386222122574419,-0.007600555364772325,0.014385494698302633,False
-0.43301224398668325,-0.44643166240119936,1.067625228836811,-0.7255908581153204,-1.7582293141606162,1.7741874608892492,0.0661562904715538,-1.8592303434955042,1.5100817680358887,-2.799429241810934,-0.851687256489889,0.007510364055633545,-0.3444602273394759,0.3336818412098399,0.03777558285030783,0.0170456495995772,-0.01900855764755718,0.013781049600371206,-0.34168508977387274,0.3337442265584731,0.04351828733254112,0.015916859303624926,-0.007862621705416184,0.01488179606212142,False
-0.435819298975993,-0.44373656163425645,1.0679274404582244,-0.7254994236407597,-1.758523052830277,1.7741451287703098,0.058165062218904495,-1.8570125738727015,1.5079355239868164,-2.7992733160602015,-0.8435280958758753,0.007378163281828165,-0.3589276650682182,0.34356457323095657,0.03837998392752169,0.017884463519729887,-0.022422793937780225,0.01194212376923235,-0.3532475469352277,0.3447083295693766,0.044963192796108574,0.016447495017283646,-0.008124688537999329,0.015378096695112364,False
-0.4387273092004428,-0.4409142006575861,1.068255127460568,-0.7256775280857761,-1.7587782256941964,1.7740068162556881,0.0499461330473423,-1.8547466436969202,1.5056934356689453,-2.7989614645587366,-0.8353079001056116,0.007281914819031954,-0.3698213173682977,0.35743374245358595,0.04186456218171077,0.01697534007924419,-0.01982520619287352,0.00924294136418665,-0.36481000409658243,0.3556724325802802,0.046408241340320455,0.016978129282816872,-0.008386755878273233,0.015874396586453628,False
-0.4416214714499226,-0.4380430712947576,1.0686650628249599,-0.7254616409933968,-1.758965497919281,1.7740220288136626,0.04164368286728859,-1.8523247877704065,1.5032358169555664,-2.7988536993609827,-0.826824967061178,0.007186041213572025,-0.37874680887066026,0.36793197528398025,0.046275822180008384,0.01750673656635235,-0.013358658592865048,0.005781648835776363,-0.37646321399664945,0.366636535591184,0.04785342720193274,0.01750876211967297,-0.008648823741787909,0.01637069572565016,False
-0.4446232482111249,-0.43507392703873216,1.0690236931736385,-0.7253209493487514,-1.7592782383024117,1.7739972773859973,0.033149491995573044,-1.849795166646139,1.500753402709961,-2.798673454915182,-0.8181265036212366,0.007030246313661337,-0.3856964678571464,0.3763851833486741,0.05006223983897495,0.01816302447289699,-0.004115086076419083,0.015341814078420632,-0.3882226460744139,0.3776006386020877,0.04929874484957683,0.01803939354749822,-0.008910892143878881,0.01686699410250753,False
-0.44778083006288494,-0.43197032170432437,1.0694690076885744,-0.7250734406159257,-1.7593385765414378,1.7738064912848635,0.024427970871329308,-1.847037140523092,1.4979596138000488,-2.798589531575338,-0.8094037214862269,0.006790187209844589,-0.39687372582733355,0.3891190839910885,0.053463556868017466,0.01858789801093517,-0.0043035536374167165,0.014772197252631588,-0.39997490730357804,0.3884498525074783,0.05074418897503637,0.018570023586113343,-0.009172961099652122,0.01736329170715409,False
-0.4509570005379474,-0.42884219611095,1.0699770167127094,-0.725006032375271,-1.7594979842283935,1.7737914648312805,0.015741653740406036,-1.8441594282733362,1.4949865341186523,-2.798373524342672,-0.8006208578692835,0.006730265915393829,-0.40980972904602353,0.4011709108546188,0.05622330940185014,0.017253144708725708,-0.006834866336162242,0.003895343190191206,-0.4117195285644312,0.399217785128254,0.05218975448433973,0.019100652255493237,-0.009435030624010724,0.017859588530026407,False
-0.4542614039894496,-0.4255981630941702,1.0704516174788619,-0.7248598751322491,-1.7597638585701307,1.7737728834193767,0.0068287611939013,-1.841090504323141,1.4919047355651855,-2.7981699148761194,-0.7915266195880335,0.006586455274373293,-0.41910374765069075,0.4090244111868772,0.05745529127584369,0.019269120489033946,-0.0047999220624158935,0.013749433349274365,-0.4234568123285033,0.40999302268798976,0.053635436488193834,0.01963127957580125,-0.009697100731601772,0.018355884561885378,False
-0.45768934449464194,-0.4222563949112601,1.070881531500232,-0.7246572244798976,-1.7599932979568924,1.773671604235346,-0.0022161642657678726,-1.8378532568561,1.4887633323669434,-2.7980855146991175,-0.782348934804098,0.006358380429446697,-0.4266604328656266,0.4207248268324882,0.0598539919955888,0.020256294573700838,0.0031986276439938833,0.017087593496697733,-0.43518705411201075,0.42077586356369917,0.05508123029403762,0.020161905567370936,-0.009959171436838412,0.018852179793817498,False
-0.4612670734062806,-0.41886642733279666,1.071297521928774,-0.724671514024513,-1.7601908493866558,1.7735398370729043,-0.011225525532857716,-1.8344000021563929,1.485489845275879,-2.798013512288229,-0.7733147780047815,0.006190601270645857,-0.440191143617986,0.43170100731869226,0.060451633587441905,0.0213229574356514,-0.001661485972396421,0.017944088624174556,-0.44691053756429355,0.4315660056120207,0.05652713139855897,0.0206925302506762,-0.010221242753914127,0.01934847421719495,False
-0.4649399379558699,-0.4153746134692643,1.0717043441074363,-0.7247132975473971,-1.7605777293649023,1.7734266903083398,-0.02039033571352178,-1.8307789007769983,1.4820609092712402,-2.7977736631976526,-0.7640164534198206,0.005950542166829109,-0.46248961469088906,0.4430584200464472,0.05402175369133896,0.022007645217561937,-0.01809794903458141,0.010956112815111958,-0.45862753490959524,0.4423631547719014,0.0579731354798515,0.021223153646344518,-0.010483314696786566,0.019844767823707584,False
-0.46877709033443116,-0.411738460997229,1.0721100551709546,-0.7249779249240893,-1.7608414317972652,1.7732514636270453,-0.029734436665670216,-1.8269785086261194,1.4785113334655762,-2.797581974660055,-0.7547186056720179,0.005782763008028269,-0.4734018507830938,0.45387538346372863,0.055421686167488694,0.02225795186919861,-0.018588337921096192,0.01694191378095056,-0.47033830740701194,0.4531670287985732,0.05941923839009846,0.02175377577514504,-0.010745387279189823,0.020341060605349185,False
-0.47252003469003545,-0.4080847207099075,1.0725741840558565,-0.724747145566273,-1.7611986689819328,1.773199019333578,-0.03904277483095342,-1.8230703512774866,1.4747586250305176,-2.7974498907672327,-0.7451689879046839,0.005494392942637205,-0.4837351606520842,0.4656980418468494,0.05864164427856714,0.023394820852526,-0.01274957476793813,0.01523104354676094,-0.48204310579217235,0.4639773568158621,0.06086543614855055,0.02228439665798363,-0.011007460514608727,0.02083735255442313,False
-0.4764451603004993,-0.40437074839999587,1.073015748362408,-0.7247511639991414,-1.7616598973480138,1.77318174707491,-0.048327271138326466,-1.818873707448141,1.4708137512207031,-2.7972338835345667,-0.7356427351581019,0.005254708230495453,-0.4998870027673513,0.4763631338722164,0.056559308143857866,0.0213629826463309,-0.02470934957042805,0.012831539113355831,-0.4937421707011066,0.47479387885848323,0.06231172493481109,0.02281501631589808,-0.011269534416290198,0.02133364366353612,False
-0.48041164599631947,-0.40053200290936125,1.0734886322996475,-0.7245862870071115,-1.7620510427473777,1.7731352448116695,-0.05776721635927373,-1.8145454565631312,1.4667010307312012,-2.7970898787127894,-0.7259615103351038,0.004954728297889233,-0.506742262909287,0.4869243085846208,0.06036932522141173,0.022859262278026194,-0.01631491514357257,0.018685974454987424,-0.502733743853512,0.483054183448409,0.0634196161996853,0.023221626947259752,-0.011470346644644875,0.02171396733883797,False
-0.48453455525705996,-0.39651788505585434,1.0740572053866837,-0.7244908240630233,-1.7620831780655581,1.7728781873468484,-0.06739932695497686,-1.8100011984454554,1.4622645378112793,-2.797041718159811,-0.71643573442568,0.004666732158511877,-0.5103662397830607,0.4937562657567262,0.06793321223892797,0.024147658112569182,-0.0013357352843206861,0.018279220348705792,-0.502864953132296,0.48292335820288035,0.06341829314631321,0.023221631221734533,-0.011470391989201714,0.021713976791706283,False
-0.48872292310794574,-0.39255370384768673,1.0745988445413,-0.7246364948652602,-1.762255057081457,1.772666897697585,-0.07671910921205694,-1.8052776495562952,1.4577078819274902,-2.796838108693258,-0.7071974913226526,0.00441506365314126,-0.5023503255746956,0.4872576727680021,0.06862528268861744,0.02271433659047269,-0.005752763112312237,0.02344151878819088,-0.502985529773335,0.48279273198570966,0.06341635349085206,0.023221589574192333,-0.0114703107519591,0.021714017353576268,False
-0.4927704846724573,-0.38868857814616287,1.075104423865099,-0.7246053518903885,-1.76264035000218,1.7726432847529392,-0.08569175401796514,-1.8005536238299769,1.4531879425048828,-2.796622101460592,-0.6980193297015589,0.0041510360315442085,-0.5030084948586354,0.4872636698096772,0.06765248849411289,0.021939668325968834,-0.008476790569673754,0.019519247806189206,-0.503101212464062,0.482667332143998,0.0634144873107208,0.023221547034258175,-0.011470230026275306,0.021714057197526074,False
-0.4968328116661179,-0.38479988724855896,1.0755477083071636,-0.7244594200149971,-1.7630788129082875,1.772605108688052,-0.09456855455507451,-1.7957332769977015,1.4486675262451172,-2.7964780966388147,-0.6888764540301722,0.0037911348044872284,-0.5013757330748538,0.48504783286172753,0.06390575434559627,0.023764986041657464,-0.008458527206338037,0.03029722323857044,-0.5032122352203904,0.4825469831383648,0.06341269626742058,0.02322150335132158,-0.011470150015149536,0.021714096169820948,False
-0.5008954497553381,-0.3809273321690189,1.0760112220407307,-0.724363916783179,-1.7634616621249892,1.7725661859929216,-0.10322982469667608,-1.7908175627337855,1.4440269470214844,-2.7963340918170374,-0.6799982229815882,0.003466811729595065,-0.5115131680567411,0.48577782501692235,0.05392266734487818,0.020961156580540773,-0.02910151379582416,0.03188325863708129,-0.5033187859998267,0.48243148176503425,0.0634109773665502,0.02322145854660592,-0.011470070730068699,0.02171413426434692,False
-0.5050692010252632,-0.3770141241296734,1.0764204293284636,-0.7246646594482998,-1.7639244141967556,1.7724928282253873,-0.11178285280336553,-1.7857821623431605,1.4393506050109863,-2.795997921620504,-0.6713345686541956,0.0031672059558331966,-0.5108232950768292,0.4877475567741611,0.06079034036181638,0.020599961453163528,-0.02263396556429348,0.01570978103084819,-0.5034210449345117,0.4823206327640213,0.06340932770245504,0.02322141264225524,-0.011469992182634454,0.021714171474969877,False
-0.509202317724414,-0.3730897997657454,1.0768629066457904,-0.7248018928797435,-1.7642463824083288,1.772337113148205,-0.12020427385439092,-1.7806981245623987,1.4345550537109375,-2.795746151600973,-0.662875000630514,0.0028073047287762165,-0.5104680585701361,0.4881569165377433,0.05892265072769902,0.021217765136189788,-0.02211871385028482,0.02041472037668685,-0.5035191848991338,0.4822142487386397,0.0634077444862924,0.023221365660503764,-0.011469914384202022,0.02171420779586091,False
-0.5132535533948628,-0.36922372226562333,1.077353060030567,-0.7245204143578892,-1.7646489781547374,1.772361921435608,-0.12838584581484014,-1.7754586378680628,1.4295425415039062,-2.7956140677081507,-0.654367748891012,0.0024354192428290844,-0.5039187984049275,0.4839453486620048,0.06061446240174781,0.022100324748144023,-0.01417715158473877,0.02955485963348278,-0.5036133718050148,0.4821121498405356,0.06340622504155398,0.02322131762367792,-0.011469837345879669,0.021714243221512348,False
-0.5172173596466448,-0.3653818453071518,1.0779140874259663,-0.7241986075423044,-1.764962153596456,1.772347622910734,-0.1363757292376917,-1.770231072102682,1.424386978149414,-2.795410458241598,-0.6461122671710413,0.0020635337568819523,-0.496412025967048,0.4833021336010761,0.07068439396404705,0.02435090493438607,0.003938441822166763,0.030923382196187704,-0.5037037648806053,0.48201416346563725,0.06340476679954071,0.023221268554177166,-0.011469761078515911,0.021714277746721782,False
-0.5211792405588827,-0.3615748679342319,1.0784685198518285,-0.7238800356539623,-1.7653017489073508,1.772310768760438,-0.14413816133608037,-1.7649195829974573,1.4191350936889648,-2.7951462904559534,-0.6380832831012171,0.001643711351789534,-0.5007701486981698,0.4837084185031596,0.06553075073622919,0.02346535547856902,-0.004690326963194318,0.022901707210268293,-0.5037905169406524,0.48192012396228456,0.06340336729502064,0.023221218474475336,-0.011469685592707939,0.021714311366596278,False
-0.5251196994623493,-0.3577079169733913,1.0790661563562491,-0.723709538320178,-1.7654302887145399,1.772190089635451,-0.1518767515765589,-1.7596319357501429,1.4138226509094238,-2.7949064413653772,-0.6302951017962855,0.0013193882768973708,-0.4974777399466613,0.4821180481966675,0.06669927671249039,0.024159422625432317,-0.0023238211763872557,0.030306637591338205,-0.5038737746445711,0.4818298723512801,0.06340202416206504,0.023221167407121084,-0.011469610898799575,0.02171434407655551,False
-0.529108931292114,-0.3538265660741309,1.0795935856915893,-0.7234797922993381,-1.7657123139090332,1.772094147724628,-0.1595070997821253,-1.7542007605182093,1.408463478088379,-2.7946303526507776,-0.6224940458880823,0.0008875816711224616,-0.5018983335470839,0.4839794511088102,0.0635817284751724,0.02481006108902161,-0.004540991559832168,0.025646548170895702,-0.5039536787443517,0.4817432560570199,0.06340073513003786,0.02322111537471189,-0.011469537006877195,0.021714375872319152,False
-0.533094007334806,-0.349988018999791,1.080146545554747,-0.723241014802054,-1.7659826922751023,1.772024370741048,-0.16689759889711553,-1.7486613432513636,1.4029474258422852,-2.794330422078268,-0.6149218718158167,0.00047974352492019534,-0.5000716079742749,0.481836782868376,0.06514760296346006,0.02322308067358069,-0.005901470210639491,0.029961619896881304,-0.5040303643225191,0.48166012864972174,0.06339949801977803,0.023221062399909984,-0.011469463926767905,0.021714406749914705,False
-0.5370857629206536,-0.3461160639211532,1.0806683825423005,-0.7230082234115376,-1.7663132522828948,1.7720043923467679,-0.17422897020448858,-1.7430499235736292,1.3973960876464844,-2.794018570576803,-0.6073482672320765,7.190534961409867e-05,-0.4997575411196123,0.48321237918298626,0.06747632740236123,0.02455876846430282,-0.0014642404833161565,0.021316681296933326,-0.5041039610205088,0.48158034959762935,0.06339831073988048,0.02322100850541977,-0.011469391668040889,0.021714436705672305,False
-0.5404045940809652,-0.34236038932344026,1.0815312526557828,-0.7219898236714415,-1.7662836838839453,1.771905224513542,-0.18143970171083623,-1.7380741278277796,1.3917365074157715,-2.793682877217428,-0.5998833815204065,-0.00034791627992802887,-0.5000221697547562,0.4830646087499652,0.06560318514121814,0.02349466389599341,-0.007028142590827985,0.026835600559686836,-0.5041745932578215,0.4815037840297097,0.06339717128320045,0.02322095371399446,-0.011469320240014798,0.021714465736224164,False
-0.5448783646711799,-0.3383803780605025,1.0818161096803067,-0.7224846662031293,-1.7667527591754963,1.7717728575632838,-0.1885312239276331,-1.7318990866290491,1.3860526084899902,-2.7932265440570276,-0.5927775541888636,-0.0008156935321252945,-0.5020239736234254,0.4817981902056184,0.06722156413506923,0.023801665243072263,-0.005495500317217357,0.024750557516276757,-0.5042423804423716,0.4814303025074555,0.06339607772342676,0.023220898048417666,-0.011469249651736284,0.021714493838494973,False
-0.5488230771328705,-0.3345598038632477,1.082380505379943,-0.7223709423244326,-1.767005351923915,1.7716912212982308,-0.19535857835878545,-1.7261560598956507,1.3802132606506348,-2.79273492494692,-0.585827652608053,-0.0012238661395471695,-0.5110302223319162,0.48469748595921,0.05633945162020301,0.022308372088696647,-0.0223427306090647,0.02457685569002241,-0.5043074371723175,0.48135978080607705,0.06339502821185107,0.023220841531509332,-0.011469179912002588,0.021714521009715566,False
-0.5529492720225553,-0.3306858952174344,1.0828361752597189,-0.722329280331588,-1.767377132225563,1.7715948245374158,-0.20210296312441045,-1.7201364676104944,1.3742780685424805,-2.7922309080706995,-0.5789254347430628,-0.0017393271075647476,-0.507677386717257,0.4823002794341376,0.06261085983873413,0.024325387209530727,-0.0105641641817351,0.023504783914212703,-0.5043698734298673,0.48129209970459663,0.06339402097422228,0.02322078418610967,-0.011469111029343323,0.021714547247402856,False
-0.5569900251425168,-0.32684824791812417,1.0833140863173858,-0.722046932271492,-1.7678539844021515,1.7716534392142116,-0.20869094530214483,-1.714057747517721,1.3682222366333008,-2.791739288960592,-0.5719516913043421,-0.0022433439837854507,-0.507677220999694,0.48393394140258444,0.05806732892048895,0.023435415231696916,-0.016447965296964455,0.030205455912551544,-0.5044297947671215,0.4812271447842333,0.06339305430776061,0.023220726035083107,-0.011469043012030708,0.021714572549372084,False
-0.5610939505081036,-0.3229574740775325,1.0837870691973441,-0.7220721197503119,-1.7681516179997603,1.771544200892596,-0.2152193228351038,-1.7079551855670374,1.362119197845459,-2.791175190602438,-0.5653374830829065,-0.0027230421649377945,-0.5021142287802818,0.48042076267539663,0.06549355515193013,0.024077152914405816,-0.006641824791804689,0.029145788808895845,-0.5044873024846106,0.4811648062349105,0.06339212657827117,0.02322066710129736,-0.011468975868074348,0.021714596913725917,False
-0.5651412524723206,-0.3191002595143965,1.0843040406376188,-0.7219843042931986,-1.7683839150289105,1.7713522556115913,-0.2215793768512171,-1.7018397490130823,1.3558716773986816,-2.790551487599508,-0.5589383284198206,-0.0032752195941370132,-0.5083749610112214,0.4840663545502886,0.059252085410379005,0.022568766296812964,-0.018062976367092996,0.0227713774760857,-0.5045424938024604,0.4811049786697697,0.06339123621738872,0.02322060740763978,-0.011468909605221934,0.02171462033885709,False
-0.5692094028245994,-0.3152323809007088,1.0847933624073338,-0.7220651703392489,-1.7687000624596,1.7712791046290297,-0.22783214250673467,-1.6956527868853968,1.349588394165039,-2.7898438612567347,-0.5525878111468714,-0.003742996846334279,-0.5069788020209043,0.48076291499998286,0.06181220957311892,0.02141779327462929,-0.014863948342264746,0.02779548517747296,-0.5045954620247958,0.48104756094687057,0.0633903817199098,0.023220546976989814,-0.011468844230962325,0.02171464282344661,False
-0.5731795633478907,-0.31142506188651464,1.0853006008353503,-0.7217162130715202,-1.769154086350417,1.7713444671698773,-0.23390514055360967,-1.6893819014178675,1.3431496620178223,-2.7891843954669397,-0.5461166540728968,-0.004282776509420216,-0.5058247434161854,0.48263065313936726,0.06109870033047684,0.024108667322045925,-0.011273031208293413,0.024829467260631337,-0.5046462966974818,0.48099245599822515,0.06338956164127746,0.023220485832226294,-0.011468779752513585,0.021714664366452033,False
-0.577161270734131,-0.3075883978085943,1.0858429650887658,-0.7213250677606609,-1.7695429016682493,1.7713225092619014,-0.23991853395570928,-1.6830270926104944,1.3365187644958496,-2.7884519735919397,-0.5397780577289026,-0.004882637654439748,-0.49006589365210906,0.4732498984160707,0.07449498664480056,0.028071494791664355,0.011463098731800944,0.03977243366627162,-0.5046950837594857,0.4809395706657359,0.06338877459510271,0.023220423996219527,-0.011468716176843315,0.021714684967124424,False
-0.5812124244695015,-0.3037758453701166,1.0863761288099494,-0.7211145531024105,-1.7698704238105876,1.7712801540364973,-0.24572784105409795,-1.6765521208392542,1.3297677040100098,-2.7876842657672327,-0.5337503592120569,-0.005422894154683888,-0.5036672586140291,0.48011282614481365,0.06464238235936397,0.022850086101101993,-0.009136443037595365,0.026754394172025256,-0.504741905688162,0.4808888155437373,0.06338801925085416,0.02322036149181737,-0.01146865351064602,0.02171470462497749,False
-0.5852189267629455,-0.29993123769068675,1.0869287864431512,-0.7209404778369085,-1.770113867781218,1.7711729335048791,-0.25151330629457647,-1.6701138655291956,1.3229689598083496,-2.786868397389547,-0.5278433004962366,-0.005962196980611623,-0.499067041851336,0.47768820541046253,0.06994821107290966,0.026228219844637593,0.0013518070473869243,0.02795174554679625,-0.5047868416387117,0.48084010482778183,0.06338729433158903,0.02322029834185174,-0.011468591760358797,0.02171472333981948,False
-0.5891301509693105,-0.2961327287037755,1.087508024638711,-0.7205547139321086,-1.7703887811342733,1.7710803385802678,-0.25715476671327764,-1.6636865774737757,1.3160743713378906,-2.7860167662249964,-0.5219834486590784,-0.006562534962789357,-0.5050429036434633,0.48086351184428877,0.061965249848955024,0.023710720562653616,-0.010363318502713166,0.027714010175592062,-0.5048299675779572,0.4807933561695825,0.06338659861179546,0.02322023456913377,-0.011468530932159014,0.021714741111720063,False
-0.5931394546465915,-0.2923402247662479,1.088027826313965,-0.7204114054373261,-1.7707420283681925,1.7710525845374838,-0.2626283804522913,-1.6571162382708948,1.3091192245483398,-2.7850568930255335,-0.5162914435016077,-0.007126156483785451,-0.5043153153488161,0.47859548175783423,0.06410845505066215,0.022222931423051026,-0.01097916681301285,0.026245619107079204,-0.5048713564128083,0.48074849053786284,0.06338593091532735,0.023220170196424604,-0.011468471031954829,0.02171475794102433,False
-0.5971148016501847,-0.2885209758476781,1.0885699476197934,-0.7199423498977414,-1.7711280786504386,1.7710321862669958,-0.2680781523333948,-1.6504376570331019,1.3019609451293945,-2.784121338521139,-0.5104916731463831,-0.007785622273580373,-0.4976837128987452,0.4778701179354603,0.06782034777121741,0.029262440005409594,0.0037617368951855523,0.028644891424650824,-0.5049110781134707,0.48070543208472594,0.06338529011341897,0.023220105246465582,-0.011468412065401536,0.021714773828347748,False
-0.6012323560186331,-0.2846358318866927,1.0890731556525055,-0.7200079333486272,-1.771427933145927,1.7709908301661643,-0.27346879640688115,-1.6436508337603968,1.2947540283203125,-2.783053700123922,-0.5049908796893519,-0.008302036915914357,-0.5059986865096323,0.4807088948592534,0.06567451319423949,0.02046759682161803,-0.013121618007002837,0.02345647575230054,-0.5049491998318227,0.4806641080172963,0.06338467512275935,0.023220039741944497,-0.01146835403788831,0.02171478877457447,False
-0.6052112228439557,-0.28081117125776756,1.0895953436014376,-0.7196380583455256,-1.771723414746303,1.7708443112439327,-0.278726879750387,-1.6369240919696253,1.2874755859375,-2.7820099035846155,-0.49953920045961553,-0.009021584187642873,-0.5034571547150969,0.47788188229897116,0.06415518243591836,0.026905533645842576,-0.0025453290902479886,0.023618940343987028,-0.5049857860147974,0.4806244484749645,0.06338408490368361,0.023219973705505062,-0.011468296954538076,0.021714802780847562,False
-0.6091896204433284,-0.27700282232772383,1.0901336595661992,-0.7195931528876814,-1.7719700958714297,1.7707077384659367,-0.2838533560382288,-1.6302216688739222,1.280160903930664,-2.780797783528463,-0.4943502585040491,-0.009633843098775685,-0.508113871081585,0.48132346767260553,0.05896120253917539,0.022552584751687275,-0.017130490489476485,0.02566074960281915,-0.5050208985134865,0.48058638641093476,0.06338351845839615,0.02321990715973061,-0.011468240820227057,0.021714815848573373,False
-0.6132670409293041,-0.27315595495893963,1.0906362823984563,-0.7194717734383395,-1.7722408666411147,1.7705436112194213,-0.28890782991518194,-1.6233027617083948,1.2726426124572754,-2.779574696217672,-0.48920995393861944,-0.010330025349752248,-0.503771343922575,0.4781149553499975,0.06360945454347482,0.027337386331829833,-0.0041853343143498575,0.0283035677114778,-0.5050545966875905,0.4805498574791212,0.063382974829299,0.0232198401271538,-0.01146818563955454,0.021714827979416335,False
-0.6172660814451233,-0.2693732658536693,1.091160826726897,-0.7192126914378775,-1.7726582615329811,1.7705545893963397,-0.29379445711244756,-1.6163485685931605,1.2650041580200195,-2.778254810963766,-0.48400909105409795,-0.011001412068502248,-0.5048639930003368,0.48034618427498765,0.06522991416348053,0.022981355395470984,-0.00921381574668928,0.021024424966768995,-0.5050869375058267,0.4805147999252505,0.063382453097358,0.023219772630239416,-0.011468131416874965,0.021714839175296256,False
-0.6212965701827343,-0.26554653529666616,1.0916717617912863,-0.7190075920548571,-1.7730660401167015,1.7705220432770463,-0.29865771928896123,-1.6093223730670374,1.257258415222168,-2.776839081441061,-0.47888023058046514,-0.011720959340230763,-0.5022783299330091,0.4790696315104492,0.06286418532850313,0.025784366607162587,-0.006612376915975028,0.02808989180475534,-0.5051179756422239,0.480481154482535,0.06338195238056304,0.023219704691381883,-0.011468078156276255,0.021714849438388098,False
-0.6253118797442739,-0.26170126415906025,1.092207286779644,-0.718933032886155,-1.7733518827810708,1.7704353526004621,-0.3034728209124964,-1.6023076216327112,1.2494397163391113,-2.7753871122943323,-0.47394305864443,-0.01236898103822881,-0.5077962200689149,0.4803560173270578,0.06365277233917357,0.022680761118647294,-0.011989512057734103,0.02419343970336871,-0.5051477635685535,0.4804488642714195,0.06338147183242804,0.02321963633289955,-0.011468025861589015,0.02171485877111524,False
-0.6293946070935671,-0.25782767663563344,1.0927218451985308,-0.7189991245716402,-1.7736498090496975,1.770314974362277,-0.3082159201251429,-1.5951851050006312,1.2414898872375488,-2.7737796942340296,-0.4691379706012171,-0.01306468645204717,-0.5140091729537734,0.4853585304150018,0.05573974120296626,0.019492974659726325,-0.023403628252611997,0.014096255199194888,-0.5051763516430108,0.48041787470345376,0.06338101064056303,0.02321956757703745,-0.011467974536388759,0.021714867176146513,False
-0.6335038340624484,-0.25393190343040856,1.0932145642524227,-0.7188973613655916,-1.7738938837624492,1.77012785932301,-0.31289941469301397,-1.587942902241842,1.233396053314209,-2.7722561995135706,-0.46440440813173467,-0.013820473347799123,-0.5005674804077618,0.47830882453581147,0.06716305504604626,0.026617855544564854,-3.992267130299709e-05,0.026947999692725516,-0.5052037881954198,0.4803881333889572,0.06338056802530193,0.02321949844594308,-0.011467924183990466,0.02171487465639549,False
-0.637592630030999,-0.25010062092060975,1.0937155407362775,-0.7189043892117842,-1.7742832727955506,1.7701570492552718,-0.3173907438861292,-1.5806406180011194,1.225193977355957,-2.770564381276266,-0.4596946875201624,-0.01446849504579717,-0.5059370301909082,0.479882367305627,0.06300926723517618,0.022795694264423183,-0.011050237440016736,0.026197365391111723,-0.5052301196088352,0.4803595900485683,0.06338014323838523,0.023219428961691685,-0.011467874807463155,0.021714881215018196,False
-0.6416216630074217,-0.2462389619075676,1.094213257111451,-0.7186852203171246,-1.774633461318787,1.7700694140741506,-0.3218944708453577,-1.5733502546893519,1.2169198989868164,-2.7688730398761194,-0.45498544374574834,-0.015260044728414357,-0.5056827578574076,0.481530994643485,0.06154952347541951,0.024881500091388092,-0.006995566777933657,0.02222937352648724,-0.5052553903980377,0.4803321964281226,0.06337973556168364,0.023219359146250874,-0.011467826409609458,0.02171488685541223,False
-0.645604832168833,-0.24243421343394586,1.0947306995405355,-0.7186075124677923,-1.7750078939848335,1.7700841341030955,-0.3262422720538538,-1.5660837332354944,1.2085976600646973,-2.7670615355121058,-0.45040780702699834,-0.01594430605043584,-0.507593417409266,0.480072810535152,0.060345616296802504,0.01951552151726786,-0.01860863189261483,0.021820407184073864,-0.5052796432847589,0.48030590621713326,0.06337934430600274,0.023219289021491604,-0.011467778992983346,0.02171489158120355,False
-0.6496725449831204,-0.2386332877135393,1.0951599739000955,-0.7184321047200972,-1.7754913939275183,1.7701442760883626,-0.33045798936952764,-1.5586255232440394,1.2001681327819824,-2.765250031148092,-0.4458420912372034,-0.016724411641256154,-0.5033044698173489,0.48016739641110473,0.06597730997857887,0.025611781556676913,-0.0032517368508879763,0.022422720045140742,-0.5053029192698959,0.48028067497045956,0.06337896880990647,0.02321921860918464,-0.011467732559890184,0.021714895396252577,False
-0.6537500992703082,-0.23477891219010372,1.0956813007081816,-0.7183391745912308,-1.7757748648897722,1.7700510471213227,-0.33468610445131475,-1.5511072317706507,1.1914501190185547,-2.7633302847491663,-0.4414923826800745,-0.017467800770894826,-0.5046892433837427,0.48028434137876297,0.06178084977055088,0.023968664489878416,-0.009360837739591524,0.022055592334190532,-0.5053252577028702,0.4802564600332462,0.063378608438589,0.023219147930990454,-0.01146768711238065,0.02171489830465076,False
-0.6577508781933397,-0.23094408687852017,1.0962170782589638,-0.7180101425271743,-1.775980580807154,1.7698532936189222,-0.33885461488832647,-1.5436127821551722,1.1826486587524414,-2.761470619832174,-0.43722612062563115,-0.018284145985738576,-0.5050275789690107,0.4788042737678199,0.06087907404357408,0.024462491698368963,-0.010292574280445846,0.02357481690808087,-0.5053466963480692,0.4802332204687503,0.06337826258283709,0.023219077008458475,-0.011467642652254431,0.02171490031071339,False
-0.661742092423704,-0.22712707325812403,1.096756911896853,-0.717953338575911,-1.7762737733156644,1.769752772189072,-0.34292632738222295,-1.536130730305807,1.1737990379333496,-2.7593234221087855,-0.43304425874818975,-0.019063774739400685,-0.5066505642950616,0.4807057760066476,0.06278485053950292,0.020387571365466137,-0.017582408231959903,0.020846913233212173,-0.5053672714487619,0.4802109169891505,0.06337793065795155,0.023219005863011774,-0.011467599181065116,0.02171490141897977,False
-0.6657577252734338,-0.22326673121589205,1.0973148898592422,-0.7177106770970587,-1.7764485537561419,1.769554513022728,-0.34698659578432256,-1.5285046736346644,1.1646976470947266,-2.7572720686541956,-0.4289334456073206,-0.01985484758485967,-0.5015630956077536,0.47946213872981935,0.067265511220647,0.027271705924955092,0.00016771456324557454,0.02109921030259285,-0.5053870177883589,0.4801895118891219,0.06337761210279824,0.02321893451596347,-0.011467556700116774,0.021714901634208184,False
-0.6698236226899514,-0.21941025557851412,1.0978026970994326,-0.7174777352615402,-1.7767752965151486,1.7694625550796743,-0.35093909898866826,-1.5207465330706995,1.1555123329162598,-2.7551005522357386,-0.42478782335390264,-0.020707432423726857,-0.500621566483888,0.47763581819728673,0.06630112970577916,0.02646082089353103,-0.0019061652240652954,0.02570602931840759,-0.505405968749165,0.4801689689821439,0.06337730637884201,0.02321886298848777,-0.011467515210465462,0.02171490096137046,False
-0.6739214949203846,-0.21554332776705906,1.0982840612984288,-0.71748860488698,-1.7770764225246838,1.769414568578468,-0.3548200766192835,-1.5129407087909144,1.1462430953979492,-2.7528088728534144,-0.4207852522479456,-0.021462742482320607,-0.5050717486475111,0.4800458127929828,0.06385951427983552,0.022243785344043983,-0.012191215110896964,0.01988799093455975,-0.5054241563688621,0.48014925353920135,0.06337701296923416,0.02321879130163579,-0.011467474712931983,0.02171489940565913,False
-0.6778954988921462,-0.21168565272697956,1.0988166202971736,-0.7174558264623315,-1.7772957747874016,1.7692136526639999,-0.35870057741274053,-1.5052903334247034,1.1369500160217285,-2.7503612677203577,-0.41690236726869756,-0.02232677141298467,-0.5080789138097604,0.48253773703039404,0.061610338800466805,0.021153877860239624,-0.01590262173175158,0.02036035248063016,-0.5054416113946978,0.4801303322302528,0.06337673137794812,0.023218719476326283,-0.011467435208080218,0.021714896972467996,False
-0.681992200676626,-0.20787116971990216,1.0992728509337988,-0.7173647082946751,-1.7776573950013317,1.7691731432483369,-0.36236554781068975,-1.497352425252096,1.1274285316467285,-2.747901741658346,-0.4130438009845179,-0.023178879414693654,-0.5101569741230175,0.48023399442966347,0.05799284118439327,0.023236115190336762,-0.014376894064181564,0.023923713283615256,-0.5054583633353649,0.4801121730676578,0.06337646112893344,0.023218647533328376,-0.011467396696248508,0.02171489366740482,False
-0.6860449164859103,-0.20404803892412984,1.099788932460552,-0.7171851206947798,-1.778032204739067,1.769152926873928,-0.3660066763507288,-1.489354435597555,1.1176557540893555,-2.74528676668276,-0.4091609160052698,-0.024042431508199513,-0.5048223592049744,0.47793362818340634,0.062087570528006515,0.0218786083585049,-0.011980272343267123,0.029321296390839458,-0.5054744405109948,0.48009474535236285,0.06337620176531288,0.023218575493275037,-0.011467359177521147,0.02171488949627237,False
-0.6901052563641548,-0.20019237826050262,1.1003356933145276,-0.7170724734807452,-1.778362885498128,1.7690690506228113,-0.3696358839618128,-1.4812963644610804,1.1076788902282715,-2.7424915472613733,-0.4053743521319788,-0.02494222322572881,-0.5038139532339323,0.48032447147745216,0.0657414924586117,0.023704964372796462,-0.0072710719701617466,0.020407524250756762,-0.5054898701009627,0.48007801962180546,0.06337595284861174,0.023218503376648006,-0.011467322651750517,0.021714884465082435,False
-0.694160403663227,-0.19631060872268877,1.1008264026376107,-0.7172333080826652,-1.7786293505862976,1.768937434309409,-0.3732531706439417,-1.4733222166644495,1.0978336334228516,-2.739624325429098,-0.4017551581012171,-0.02581817308534795,-0.5096837978201251,0.48131331621792045,0.058282995484111894,0.02332607672567319,-0.01411954464072121,0.02115921763848099,-0.5055046781898846,0.48006196760016656,0.06337571395801342,0.023218431203778596,-0.011467287118555464,0.021714878580035703,False
-0.6982475608046378,-0.19247412272341247,1.1012731498084967,-0.7171068482562076,-1.7789870709094857,1.768882659113921,-0.37671405473818,-1.4651449362384241,1.0877609252929688,-2.736816708241598,-0.39810020128359014,-0.026741806660787404,-0.5034241450828657,0.47725218784460266,0.06322422629697497,0.02412474456776545,-0.009472709734029292,0.025896807454723513,-0.5055188898116705,0.4800465621505612,0.0633754846896586,0.02321835899484454,-0.011467252577312986,0.021714871847532336,False
-0.7022438512279165,-0.18868070666429262,1.1018334575182775,-0.7166901945841279,-1.7793159402265732,1.7687885394183507,-0.380103890095846,-1.4569066206561487,1.0773162841796875,-2.733889881764547,-0.39445764223207647,-0.027701679860250294,-0.5039189611020242,0.4794611008808895,0.06537481394168648,0.026845500654521147,-0.003681943520114417,0.022489781153376097,-0.5055325289918717,0.4800317772291672,0.063375264655935,0.023218286769862824,-0.011467219027172376,0.021714864274158002,False
-0.7062499560207453,-0.1848614226807758,1.1023514799232035,-0.7164732091071021,-1.7796667798213535,1.768792033890299,-0.38346940675844365,-1.4486449400531214,1.0668716430664062,-2.7308900992022913,-0.39083844820131475,-0.028565708790914357,-0.5090974928649525,0.482167888365474,0.05995655166180836,0.02099306222282679,-0.017550807942462707,0.018106354764936897,-0.5055456187882971,0.4800175878412695,0.06337505348485327,0.023218214548676383,-0.011467186467047474,0.021714855866684406,False
-0.7101908978953523,-0.18103763332357647,1.1028882919679934,-0.7162863325573847,-1.7799512346309827,1.7686280140065798,-0.3868354002581995,-1.440479580556051,1.0563912391662598,-2.727698628102438,-0.38736278215517217,-0.02957326570619756,-0.509052248506018,0.4817341132681145,0.05710385287680994,0.019812860808124264,-0.02147687730122695,0.018724729855126587,-0.5055581813299994,0.48000396999881256,0.06337485081940793,0.023218142350984114,-0.01146715489563116,0.0217148466320693,False
-0.7141899188903351,-0.17724575100451528,1.103432559365689,-0.7160312613331585,-1.780259874502312,1.7685671929290367,-0.3900569120990198,-1.4320853392230433,1.04557466506958,-2.7244837919818323,-0.3839357534991663,-0.030484978352681935,-0.5041573410852174,0.4776113403764336,0.06339895756620749,0.026046201592705834,-0.006108049072213351,0.023229589039487963,-0.5055702378546245,0.4799909006800555,0.0633746563169526,0.02321807019629169,-0.01146712431137846,0.021714836577449097,False
-0.7182729099420841,-0.1734009726013484,1.1039392904615084,-0.7157918218788217,-1.7805922377536123,1.7684718335050018,-0.3932550589190882,-1.423499886189596,1.0345063209533691,-2.721112076436178,-0.3805444876300257,-0.03149301210512334,-0.5019868738836908,0.4792890837753526,0.06715177661505421,0.02584573062730939,-0.0037767772596362242,0.02320862812249744,-0.505581808744432,0.479978357790589,0.06337446964865623,0.023217998103944627,-0.011467094712526243,0.021714825710135076,False
-0.722282930225329,-0.16957595958349353,1.104464001882166,-0.7157466608945992,-1.780933197574165,1.768443484648724,-0.3964164892779749,-1.4150098005877894,1.0234503746032715,-2.7175610701190394,-0.37721282640566045,-0.03242856660951787,-0.5118690320015635,0.48320788738551257,0.05810080181403035,0.020476864733186773,-0.019619173404922405,0.01977897455650406,-0.5055929135606347,0.4799663201258927,0.06337429049891621,0.023217926093099694,-0.011467066097087988,0.02171481403761361,False
-0.7263559663564644,-0.1657459894575466,1.1049644163922407,-0.7158622667162048,-1.781171840157128,1.7682323231099653,-0.39950687090028936,-1.4064605871783655,1.0122618675231934,-2.713842217122213,-0.3741691748248499,-0.03347236314882451,-0.5108502352607532,0.480847604088623,0.05856204262903501,0.02257918423944409,-0.016097775345070717,0.018868026554913944,-0.5001863609375764,0.4748178964121763,0.06269549123266818,0.022969231268529886,-0.011344213754775442,0.021482300503473127,False
-0.7304633840171044,-0.16188455051640493,1.105437802195183,-0.7158941026326834,-1.781490391540041,1.7682084372462685,-0.4025610128985804,-1.3976948896991175,1.000809669494629,-2.710135285054342,-0.3709810415851038,-0.03439647356142217,-0.49057846182186166,0.4668357985029399,0.06783207113979596,0.028460995632645147,0.002284719128622381,0.025817589988577222,-0.48861948584376746,0.46382881733723463,0.06124503414848048,0.022438373805949527,-0.011081687805784363,0.020986125594700658,False
-0.7344346160282207,-0.15811414407866195,1.105905495877772,-0.7157874479009763,-1.7818134916914983,1.7681596930198151,-0.40551883379091436,-1.3890851179706019,0.9894537925720215,-2.7064273993121546,-0.3678539435016077,-0.035367790852681935,-0.47155014691443325,0.4529694768118527,0.06902267781997892,0.02913612404038117,0.006388205789026713,0.023145190289213725,-0.4770673331413893,0.45285453642975426,0.059796479281013865,0.021907639446400826,-0.010819508533212327,0.020489860804874346,False
-0.7382487611076295,-0.15448513734918082,1.1063471370792297,-0.7158337333148989,-1.7820711244335097,1.7680350168154233,-0.4083336035357874,-1.3808234373675745,0.9784817695617676,-2.70270806947817,-0.3650015036212366,-0.03634006181825811,-0.47665446221128493,0.449790099690311,0.051482263658391494,0.015909867872245506,-0.02484541799798594,0.017151336219040778,-0.4655148664090817,0.4418807612926543,0.05834794098361314,0.02137690458938686,-0.01055733077999206,0.019993594796814233,False
-0.7420780141492146,-0.15090024272785796,1.1067137870981574,-0.7159702193018918,-1.7822839390184657,1.7678388340651803,-0.41104060808290654,-1.3725855986224573,0.9675931930541992,-2.6990016142474573,-0.36235315004457647,-0.03734761873354131,-0.46413204696068155,0.43684233226008023,0.04992626026529136,0.016193006233739024,-0.02393208520853861,0.017609575545266598,-0.4539619979652499,0.4309073764123594,0.05689940602240021,0.02084616999797375,-0.0102951540234799,0.019497327981689214,False
-0.7458045236935236,-0.14743229989337267,1.107065214926871,-0.7159926508734996,-1.7826645800796808,1.7679128508782571,-0.41359168687929326,-1.3643835226642054,0.9567289352416992,-2.695294205342428,-0.35957318941225225,-0.03823596635927373,-0.45103921043028816,0.42507163022403754,0.051132138635971255,0.016375781141524243,-0.01891525835364155,0.018583783775049646,-0.4424087432938006,0.4199343654085438,0.0554508741756698,0.020315435692939122,-0.010032978260534828,0.01900106036847969,False
-0.7494111580680982,-0.1440333874824671,1.1073610214173322,-0.7160102340534737,-1.7831081936655193,1.7680284941204891,-0.4160826841937464,-1.3563855330096644,0.9461402893066406,-2.6915748755084437,-0.3567927519427698,-0.03917152086366826,-0.44121188565302044,0.4154691855182906,0.045697084702143044,0.01329510322948696,-0.025235210832533578,0.021784891896797047,-0.4308551179470624,0.4089617132169126,0.05400234531732925,0.019784701692550047,-0.009770803486806715,0.01850479196726777,False
-0.7528989982136229,-0.1407576902351229,1.1076798156931693,-0.7162451590503481,-1.7834237692875468,1.7679999552056123,-0.41845399538149053,-1.3486865202533167,0.9358034133911133,-2.6877716223346155,-0.3543599287616175,-0.040107075368062794,-0.4334664219731735,0.4073881143374449,0.042485539526984195,0.011968474199606158,-0.028027470371623425,0.016022632756920216,-0.41930113685572823,0.3979894053845334,0.05255381932698008,0.01925396801486167,-0.009508629697734083,0.018008522788300833,False
-0.7562590609183399,-0.13757586608404004,1.1080765958650136,-0.7161706380684292,-1.783658247579274,1.7678855633224362,-0.4207418600665491,-1.341036621724264,0.9252982139587402,-2.684040371571676,-0.351999584828512,-0.04103118578066045,-0.41121355341790516,0.3905782432688873,0.05188209330771426,0.021192545616874094,-0.00680984429125793,0.01506357678751537,-0.40774681434910914,0.38701742804064143,0.05110529608905965,0.018723234677679577,-0.009246456888551371,0.017512252841968664,False
-0.7595614375954783,-0.13445000858158304,1.108498856462305,-0.7162287349646517,-1.7839255820386772,1.7678622677297247,-0.42295724550356084,-1.3334458510028284,0.9147696495056152,-2.680153195058004,-0.34968644777406865,-0.04188281694521123,-0.3916473325526493,0.375895855875246,0.058491413914011074,0.024554250859549022,0.005456452167127562,0.01755939785652433,-0.39619216417933917,0.37604576787326116,0.04965677549267127,0.018192501698560952,-0.008984285054295035,0.017015982138813786,False
-0.7626124099128653,-0.13157244994558054,1.1089655083925576,-0.715978325949399,-1.784228263409816,1.767850008838548,-0.42495757738222295,-1.326191250477926,0.9045047760009766,-2.6763742605792444,-0.34745723405946904,-0.042746845875875294,-0.3819545263078112,0.36238399916458014,0.05253204157924937,0.0232658673771969,0.0024453335609395943,0.019756720645207584,-0.3846371995446123,0.36507441210648783,0.04820825743138116,0.017661769094831477,-0.008722114189798263,0.01651971068951671,False
-0.7655607471527667,-0.12875734237940392,1.109390587706805,-0.715698732583889,-1.784447499592875,1.7676920534675462,-0.4269216696368616,-1.3191641012774866,0.8945279121398926,-2.6727026144610804,-0.34538394609560186,-0.043682400380269826,-0.37503306992857305,0.3521091651680486,0.04562136436391551,0.019584387074053425,-0.0067049896530771425,0.01864388420959431,-0.37308193311149807,0.3541033484791715,0.04675974180304891,0.017131036883561733,-0.00845994428969915,0.016023438504893885,False
-0.768465939126709,-0.12597646800794907,1.1098663897386538,-0.7156963196788233,-1.7845616713292558,1.7675276013015917,-0.42884999910463506,-1.3122332731830042,0.8845505714416504,-2.6689356009112757,-0.3435023466693323,-0.04446250597109014,-0.3591426053810842,0.3418128668074989,0.04997582004974036,0.01921139417946348,-0.0026793616674388454,0.01709466632665478,-0.36152637703637563,0.34313256522395613,0.04531122850963448,0.016600305081564612,-0.008197775348443695,0.015527165595895766,False
-0.7713311711529578,-0.12326457754935893,1.1102130720467225,-0.7153923418010635,-1.7847657583269283,1.7674080409589585,-0.43068248430360967,-1.3053267637835901,0.8747773170471191,-2.6654322783099573,-0.34153730074037725,-0.04531413713564092,-0.3433608625764561,0.33061720697981095,0.05195977126826324,0.025234026102420717,0.010421655944758398,0.01851333085429132,-0.34997054298597174,0.33216205104745605,0.04386271745706975,0.01606957370541419,-0.007935607360288463,0.015030891973605695,False
-0.774071472570361,-0.12067575321278334,1.1105604789885286,-0.715181849080695,-1.7849863521520806,1.7673684127329505,-0.4324072043048304,-1.2986591498004358,0.8652801513671875,-2.661952797566549,-0.3396561781512659,-0.04606992403139287,-0.3315182507928245,0.3194266362033682,0.04929365012796025,0.023147737376191593,0.008129117437117542,0.018880134600529487,-0.3384144421570621,0.32119179511126067,0.042414208555057384,0.01553884277141701,-0.0076734403193019635,0.014534617649224141,False
-0.7767256035968242,-0.1180641398704481,1.1109095846925392,-0.7150249997785244,-1.7851237235113766,1.7672339373494765,-0.43420344987978154,-1.292147461568014,0.8559269905090332,-2.658485237752096,-0.3378222624408167,-0.04683810869325811,-0.3304546287792811,0.3132326063354388,0.0393433014300365,0.015371278884771293,-0.007702316203982082,0.020954520310752813,-0.32685808529542154,0.3102217870134516,0.04096570171695701,0.015008112295627207,-0.007411274219368241,0.014038342634083645,False
-0.7792926889819494,-0.11564264571059737,1.1112561383919568,-0.7149375029035682,-1.7853283483890017,1.7671787272448034,-0.4357841650592249,-1.285827938710348,0.8467893600463867,-2.6549585501300257,-0.3361447493182581,-0.04758149782289678,-0.320728715217047,0.30301496335421274,0.03790800073699061,0.009312272621836912,-0.016536530508547087,0.01551143766762636,-0.31530148271399083,0.2992520167711527,0.03951719685961204,0.014477382293836175,-0.007149109054187627,0.013542066939622026,False
-0.7817945649058381,-0.11324951535724984,1.1115727814222958,-0.7149925804105549,-1.7855221264716086,1.7671750778545887,-0.4373534361468714,-1.2796648184405726,0.8378911018371582,-2.6514790693866175,-0.33450299898256475,-0.0482409636126917,-0.3063173594700718,0.2895004572135871,0.038128229608145076,0.0158508179723236,-0.005120997088221488,0.01568721680387003,-0.3037446443103157,0.2882824748035674,0.03806869390322752,0.013946652781576002,-0.006886944817283774,0.013045790577396493,False
-0.7842271774265331,-0.11094450607929511,1.111856881097392,-0.7150167753443184,-1.7856987017996777,1.7671276518261458,-0.4388387838946741,-1.2736571470843714,0.8292093276977539,-2.6480839888202112,-0.3329690138446253,-0.048925224934713185,-0.2929328838502583,0.2775586331126532,0.037278446966106764,0.014065892280478456,-0.006080015383993359,0.01810053663279026,-0.2921875795833057,0.2773131519158513,0.036620192771214005,0.013415923774112201,-0.006624781502001506,0.012549513559071234,False
-0.7866377896328711,-0.10874817839261072,1.1120624502809637,-0.7151252524705508,-1.785989910835907,1.7672087940716266,-0.4401796499835413,-1.2677577177630823,0.8207907676696777,-2.6446879545794886,-0.3314707914935511,-0.04960948625673467,-0.2834395398108267,0.2674879554022658,0.03368008519046112,0.011528339381110732,-0.010164374770624963,0.0162922147055664,-0.2806302976491789,0.2663440392834818,0.03517169339009953,0.012885195286444037,-0.0063626191015222835,0.012053235896418664,False
-0.7889278182641613,-0.10660408216251886,1.1122640456964676,-0.7151876072328146,-1.786168068760946,1.767180621259966,-0.4415209929095667,-1.2620976606952112,0.8126602172851562,-2.6414969603167933,-0.33008081117738897,-0.05025703111757451,-0.27778932202403356,0.2602297535792278,0.028883995867733207,0.010582816204032341,-0.013036633353473194,0.007564131146656463,-0.26907280725707106,0.2553751284374223,0.033723195689355376,0.012354467333297488,-0.006100457608844104,0.011556957601300545,False
-0.7910411355444281,-0.10463752145068038,1.1125013539887065,-0.7151771454818375,-1.7863804520718614,1.7671596646109426,-0.44273072877992803,-1.2567608992206019,0.8048539161682129,-2.638317886983053,-0.3287747542010706,-0.050928894673482716,-0.27021598910876193,0.25191089098204344,0.022927785854684208,0.0037742865030043274,-0.02407617969510075,0.008694363862260314,-0.25751511680360284,0.24440641124975224,0.03227469960131352,0.011823739929137461,-0.005838297016808623,0.011060678685690826,False
-0.79307423552727,-0.1027291874879564,1.1127325860446844,-0.7150446051314164,-1.7865392839578584,1.767116599539128,-0.4439047018634241,-1.2515328566180628,0.7971792221069336,-2.6353424231158655,-0.3275039831744593,-0.05152923265566045,-0.2552804680518312,0.23993802046901783,0.024949248256899422,0.008106209661493703,-0.01515431224882939,0.007770032611815373,-0.24595723434728492,0.23343787992000062,0.030826205061044352,0.011293013088153024,-0.005576137318087357,0.010564399161640111,False
-0.7950730692096745,-0.10087699912932445,1.1129235856599355,-0.7151161121552649,-1.7867656674653243,1.7671917224647637,-0.4450181166278284,-1.246448818837301,0.7897686958312988,-2.6323183218585413,-0.3262580076800745,-0.05208045641054326,-0.23612877860651746,0.2247007829425055,0.031024165094896854,0.0092738887689428,-0.006946145914710454,0.01314049499267463,-0.2343991676219761,0.22246952696180414,0.029377712006240654,0.010762286824249997,-0.00531397850519915,0.010068119041300793,False
-0.7968756683269167,-0.09913234110765674,1.113172764844867,-0.7148941276584205,-1.7869036372494598,1.7671350957106375,-0.44610816637148076,-1.2416403929339808,0.7825732231140137,-2.6295111815081995,-0.32505923906435186,-0.05264503160585576,-0.22845191766806394,0.21420097947044073,0.024593603922898628,0.006703894827174053,-0.013085104621124478,0.011086294620435375,-0.22284092405004477,0.2115013451904808,0.027929220377118587,0.010231561151077075,-0.005051820570498258,0.009571838336894917,False
-0.7986558399998104,-0.0974723688441797,1.113383395147215,-0.7149633389898727,-1.7870452438896305,1.767142588593274,-0.4471018950091761,-1.2370231787311,0.7757143974304199,-2.6267035643206995,-0.3240168730365198,-0.05312472978700811,-0.21476603358964425,0.20316526849717104,0.025971307184546405,0.007683480016744015,-0.009171124731023508,0.010414283122101792,-0.21128251075492396,0.2005333277106578,0.02648073011631663,0.00970083608199098,-0.004789663506185239,0.009075557060739129,False
-0.8002880140975147,-0.09593287320519182,1.1135938249632344,-0.7148394361744915,-1.7872232423532985,1.767144498496222,-0.4480245749102991,-1.2326586882220667,0.7691664695739746,-2.62402850786318,-0.3229625860797327,-0.053652588521138966,-0.20277175492785432,0.19234358368604432,0.023479593612033424,0.004640176507957713,-0.012310915182966654,0.014455254450619764,-0.20429369444854623,0.18949705733462086,0.025289116033215396,0.009279139151241962,-0.004584080920582184,0.00867743720696213,False
-0.8018272591048349,-0.09444677411059282,1.1138155354884132,-0.7148675614007579,-1.78739234011085,1.7671647851217285,-0.4489343802081507,-1.2285335699664515,0.7629189491271973,-2.621341053639547,-0.3219674269305628,-0.05414420763124639,-0.19656700395538523,0.18026932780512275,0.025954462120111987,0.008454921404121879,-0.006336351074559141,0.00748331421399189,-0.20402313761249188,0.17820825470895976,0.024463257277688676,0.009013610364964841,-0.0044529043724994,0.008429126525119027,False
-0.8033320764837,-0.09306299956119504,1.1140840159703096,-0.7148726132251868,-1.7874856249522737,1.7670954905456748,-0.44973689714540654,-1.2244680563556116,0.7566356658935547,-2.6186650435077112,-0.32116490999330694,-0.054611984883443654,-0.20413244275915582,0.17060332473808928,0.021001306051740873,0.005888387078685109,-0.010778150213932025,0.006812216442109192,-0.20375258077643763,0.16691945208329845,0.02363739852216253,0.008748081578687165,-0.004321727824416553,0.008180815843276328,False
-0.8049013420640789,-0.09174716278343628,1.1143398964390627,-0.7147648443981537,-1.7875585750311385,1.7670398966494236,-0.45040780702699834,-1.2202237288104456,0.7501115798950195,-2.6160853544818323,-0.3204577604876917,-0.05499631563295537,-0.19876912446471168,0.15705464086368057,0.026625110611904278,0.012427444538439952,0.004885603584920982,0.008002488124094332,-0.20348202394038292,0.15563064945763727,0.022811539766636288,0.008482552792410121,-0.004190551276333027,0.007932505161433448,False
-0.8063830819796005,-0.09059585316244058,1.11464169185502,-0.7145121898331199,-1.7876235622112222,1.7669479028284305,-0.4509227911578577,-1.2161105314837855,0.7436485290527344,-2.61355430284609,-0.31988221803774053,-0.05538016954530889,-0.19789589094443027,0.14529969321683198,0.025575310420826496,0.009873878726150993,0.00015256991282192045,0.009024092736501777,-0.2032114671043285,0.14434184683197654,0.02198568101110977,0.008217024006132449,-0.004059374728250284,0.00768419447959034,False
-0.8078765271154711,-0.08953152686164086,1.1149130599903083,-0.7140903170637619,-1.7876722586304745,1.7668305937901607,-0.4513180891620081,-1.2119491736041468,0.7371487617492676,-2.611190144215719,-0.3193910757647913,-0.05574018159975225,-0.19202337118882737,0.13040663714573836,0.028697508150317366,0.016582335770976352,0.014128725792775125,0.010278782190458814,-0.2029409102682743,0.13305304420631528,0.021159822255583303,0.007951495219855224,-0.003928198180167201,0.007435883797747443,False
-0.8094495331675694,-0.0885088149745829,1.1151302881585756,-0.7139192427148834,-1.7877352166272311,1.7667247908856745,-0.45161754289735967,-1.2077763716327112,0.7307214736938477,-2.6087191740619105,-0.3190673033343714,-0.05611163774599248,-0.1939611960670054,0.11786070169487302,0.027878930504117265,0.011325083869741088,0.004976919872506116,0.010623700638767233,-0.20267035343221956,0.12176424158065388,0.020333963500057305,0.007685966433577898,-0.0037970216320845213,0.007187573115904501,False
-0.8110403396924205,-0.0876387919052505,1.1153081967640495,-0.7138269742877839,-1.787845866377354,1.7667213872866296,-0.4517133871661585,-1.203651253377096,0.7244377136230469,-2.6063197294818323,-0.318888012562887,-0.05638772646059209,-0.1985874918514479,0.10740002930128519,0.02302697777390252,0.010113010200776155,-0.00027724060231915787,0.00406834693859454,-0.20239979659616528,0.110475438954993,0.019508104744531036,0.0074204376473005935,-0.00366584508400147,0.006939262434061585,False
-0.8126550146406878,-0.08679635743556832,1.1154225089945198,-0.7136654439735501,-1.7879695923778607,1.7666854967920467,-0.4517610708819788,-1.1995146910296839,0.718226432800293,-2.6040037314044397,-0.3187444845782679,-0.056723896657125294,-0.20210179157301972,0.10355810655164206,0.01676737563652223,0.00720464500947322,-0.004939619065650675,0.007369379808965817,-0.2021292397601109,0.09918663632933211,0.018682245989004403,0.007154908861023126,-0.0035346685359185955,0.006690951752218445,False
-0.8142157426794403,-0.08613883743847892,1.1156061859720572,-0.7136639232770783,-1.7880715345726454,1.7666613122771493,-0.45161754289735967,-1.1955450216876429,0.7121105194091797,-2.6015923658954065,-0.3188522497760218,-0.056975666676656544,-0.20794316329246854,0.09000618527258296,0.011579322658129962,0.0018714924779245877,-0.015759083896664302,0.004218928514117409,-0.20185868292405637,0.08789783370367087,0.017856387233478294,0.006889380074745729,-0.00340349198783553,0.006442641070375627,False
-0.8158969682676219,-0.08543311663474146,1.1156554967066332,-0.713640661977103,-1.7881838381389574,1.7666343212701132,-0.45146161714662725,-1.1914084593402308,0.7059946060180664,-2.5993369261371058,-0.3189600149737757,-0.057251755391256154,-0.20869968572427824,0.07929049465314257,0.01138619682405809,0.005963981315961953,-0.007968176183121338,-0.0011494624366940624,-0.20158812608800183,0.07660903107800976,0.017030528477951962,0.0066238512884686275,-0.0032723154397523817,0.006194330388532786,False
-0.8175772934044798,-0.08485567568830259,1.1157275934880304,-0.7138211572751798,-1.7883268574424953,1.7666989575687595,-0.4511502424823206,-1.187342945729391,0.6999392509460449,-2.596973244343893,-0.3192232290851038,-0.057431999837056935,-0.2097971559237962,0.0692297088037613,0.009237437674730075,-0.002591712883268848,-0.020553408504167047,0.005530083472983986,-0.20131756925194735,0.06532022845234865,0.016204669722425385,0.006358322502191427,-0.0031411388916695662,0.005946019706689742,False
-0.8192382028972783,-0.08430142963489894,1.1157795040155114,-0.7138111064564355,-1.7884025607936433,1.766629528286143,-0.4508269468890589,-1.1832898298846644,0.6938953399658203,-2.5947654883014124,-0.31954700151552373,-0.05767184892763311,-0.20723602720406495,0.05854548219752889,0.00858482737138103,0.001393578804236767,-0.014175157433613028,0.0053354284368766205,-0.20104701241589326,0.054031425826687345,0.015378810966898868,0.006092793715913543,-0.0030099623435872417,0.0056977090248469114,False
-0.8208693796451615,-0.08387724543823769,1.1158791897613771,-0.713825472021192,-1.7885073001966294,1.7666505003602113,-0.45036012331117803,-1.179260555897848,0.6877913475036621,-2.5925100485431116,-0.3199542204486292,-0.05780393282045537,-0.20313853172914237,0.04586411645308002,0.012691541597452012,0.00219252977885145,-0.00872033540705603,0.005855009093654653,-0.20077645557983897,0.04274262320102631,0.01455295221137241,0.005827264929636398,-0.002878785795503807,0.005449398343003922,False
-0.8225332456351923,-0.08353955202365167,1.1159655759676494,-0.7140199760378393,-1.7886095283234595,1.7667180704852496,-0.44977313676943,-1.1752556006061,0.6817479133605957,-2.5902302900897425,-0.3205173651324671,-0.057851616536275685,-0.2050185222412763,0.036721296324500496,0.009767448237126237,-0.0013983251917855984,-0.015455264078843173,0.004831765564764263,-0.20050589874378427,0.0314538205753652,0.013727093455846363,0.0055617361433591425,-0.0027476092474210314,0.005201087661160926,False
-0.8241520521620833,-0.08327617790686188,1.116044597954374,-0.7140116320771349,-1.7886793453575205,1.7666954380685378,-0.44912606874574834,-1.1713102499591272,0.6757640838623047,-2.5880945364581507,-0.3211405912982386,-0.05794746080507451,-0.2008389576233705,0.024545287256814968,0.012278199283243434,0.004820077522580441,-0.004358927096580472,0.003924564905894817,-0.20023534190773018,0.020165017949703955,0.012901234700319859,0.0052962073570816766,-0.0026164326993378534,0.004952776979317833,False
-0.8257250759279958,-0.08310010252542875,1.1161980161430587,-0.714156205302644,-1.788711486983379,1.7666538073696563,-0.44840747514833623,-1.1674731413470667,0.6697802543640137,-2.5858152548419397,-0.3219197432147425,-0.05799562135805303,-0.20374199603106197,0.016189570535401383,0.008659480824827058,-0.0005082685743966761,-0.012591911972126753,0.003563463583781789,-0.1999647850716753,0.008876215324042936,0.012075375944793822,0.005030678570804415,-0.0024852561512550713,0.004704466297475129,False
-0.8273400041265219,-0.0830506017375747,1.1162657505990956,-0.7142040883979616,-1.7888024932840627,1.7666835930451152,-0.44750959077943975,-1.1636117140399378,0.6639161109924316,-2.5837276617633265,-0.32277042070497686,-0.05800754228700811,-0.20318651424152814,0.004900310946501311,0.007293954843941491,0.0019605890022175495,-0.00740518586757461,0.005465623961222041,-0.19969422823562077,-0.002412587301618179,0.011249517189267385,0.004765149784527232,-0.0023540796031718218,0.0044561556156321345,False
-0.828940530930266,-0.08307178574809025,1.1163423261171572,-0.7141844540030725,-1.7888673781493585,1.7666769365963841,-0.4465392271624964,-1.159762207661764,0.6580281257629395,-2.5816877524005335,-0.3237054983722132,-0.05800754228700811,-0.20325863811960732,-0.007423577497766663,0.006221148891357365,0.003805408209982201,-0.005309685055705228,0.0012208712297883718,-0.1994236713995668,-0.013701389927279248,0.010423658433740851,0.004499620998249649,-0.0022229030550891494,0.004207844933788892,False
-0.830514426738049,-0.08322213137519371,1.1164583172466138,-0.7142650932974196,-1.7888768911442163,1.7666372899757499,-0.44543725648988897,-1.1560214201556605,0.6522126197814941,-2.5796483198748987,-0.3248556295977991,-0.057935539876119435,-0.19774462180703273,-0.021712788213714706,0.011780620710636769,0.004720071614176414,-0.0007672791392898267,0.0019436234099974112,-0.19915311456351215,-0.024990192552940306,0.009597799678214784,0.004234092211972502,-0.0020917265070057936,0.003959534251946126,False
-0.8321275749268701,-0.08340712966951508,1.1165284850394945,-0.7142840008598342,-1.78887617671506,1.7665682465015002,-0.44427568117250615,-1.1522200743304651,0.6463727951049805,-2.5776923338519495,-0.32606631914247686,-0.057875935231344044,-0.19950788921757204,-0.032373581426807546,0.007292915171125883,0.004459615103196516,-0.0027190579627017347,0.0036855499724211312,-0.1988825577274575,-0.036278995178601635,0.00877194092268832,0.003968563425695259,-0.00196054995892262,0.0037112235701032676,False
-0.8337649226821547,-0.08376026689711087,1.1165596166849001,-0.7142962247637357,-1.7889640580338733,1.7665979052927487,-0.44289857545961553,-1.148431126271383,0.6406168937683105,-2.5757606665240687,-0.3273842970477503,-0.05779153505434209,-0.19577645007065606,-0.04726338863114136,0.013053725706517406,-0.000453134239234345,-0.002880129336191037,0.0019324732347468752,-0.19861200089140346,-0.04756779780426288,0.007946082167161646,0.003703034639417596,-0.0018293734108404663,0.003462912888260298,False
-0.8353347252632535,-0.08417211964286432,1.1165988214969886,-0.7141697647717683,-1.7889925828356472,1.766538102998235,-0.44149715105165654,-1.1447613875018519,0.6349925994873047,-2.5739854017840784,-0.32876283327211553,-0.05771953264345342,-0.19664922809242527,-0.059634792288704434,0.006937283039824826,0.0069364668626641455,0.0032488091281827093,0.005739503447581302,-0.19834144405534893,-0.05885660042992378,0.007120223411635551,0.0034375058531402602,-0.001698196862757323,0.003214602206417396,False
-0.8368805957066575,-0.0847477644430268,1.1167010739545615,-0.7141113738059418,-1.7890376712411626,1.7665440591981014,-0.4399164358722132,-1.141127888356344,0.6292967796325684,-2.572113339100973,-0.330296818410055,-0.05755168596376592,-0.1936951885630268,-0.07340274112759325,0.010798026534411819,0.0030460145692087146,0.0026450292246460554,0.00690603651893566,-0.19807088721929428,-0.07014540305558468,0.00629436465610923,0.0031719770668631256,-0.0015670203146740651,0.0029662915245744566,False
-0.8385055462628339,-0.08532472189829769,1.1167148081988834,-0.7141787670386666,-1.7890804992074323,1.766523980434954,-0.4382994810687464,-1.137470547352926,0.623720645904541,-2.570277516041891,-0.33192617097963506,-0.05742007890810186,-0.1976698051626828,-0.08197161987813699,0.0044926813915711645,0.00034255125179998534,-0.005414891962076528,0.009822002297497264,-0.19780033038324007,-0.08143420568124615,0.005468505900582709,0.002906448280585826,-0.0014358437665912879,0.0027179808427315313,False
-0.8400794613687508,-0.08600767372644054,1.116726519079685,-0.7141367455590075,-1.7891413882690101,1.766544501065812,-0.43658668199648076,-1.1338971296893519,0.6182646751403809,-2.5685742537127894,-0.3335798422442835,-0.057239834462301076,-0.19977290615928048,-0.0906531941463917,0.0015815320773989571,0.0010474272403653041,-0.00540275553178798,0.006046997700483809,-0.19752977354718587,-0.0927230083069072,0.004642647145056215,0.002640919494308315,-0.0013046672185081758,0.002469670160888428,False
-0.8416206509349123,-0.0867937333747279,1.1167961704041474,-0.713989474005706,-1.7891393990029962,1.7664585535686834,-0.4347780386554163,-1.1303356329547327,0.6126766204833984,-2.5668461958514612,-0.33538943925966436,-0.057083908711568654,-0.20034301871772828,-0.09986010782423556,0.0006810101309832782,0.00035471544095294974,-0.005520025248763494,0.004596606947027673,-0.19725921671113117,-0.10401181093256796,0.003816788389530367,0.002375390708030861,-0.0011734906704252424,0.0022213594790455727,False
-0.843214806767731,-0.08765876109653689,1.1168034508289713,-0.7140479898776236,-1.7892159036157669,1.7665012482688338,-0.4328501860248011,-1.1267979780780237,0.6072564125061035,-2.565094296132223,-0.3372710386859339,-0.05686790147890264,-0.20082017374746292,-0.10965745953870432,-0.0010325104186307476,-0.0005609902788802183,-0.007656174077221781,0.0031097922370481286,-0.19698865987507697,-0.11530061355822943,0.0029909296340036007,0.00210986192175356,-0.0010423141223426247,0.00197304879720252,False
-0.8447394658240244,-0.08864176216523253,1.1168363436481923,-0.7138899240315061,-1.7892497863212562,1.7664773505931997,-0.4308260122882288,-1.1233442465411585,0.6018843650817871,-2.5634992758380335,-0.33923608461488897,-0.05665189424623662,-0.19706157699155447,-0.1235931792584558,0.002204800780901595,0.001482591173489308,-0.0021657427575543058,0.0020464400102256338,-0.1967181030390223,-0.12658941618389039,0.0021650708784773285,0.0018443331354762414,-0.0009111375742597329,0.0017247381153596797,False
-0.8463132482142243,-0.08970789108972806,1.1168490232817876,-0.7137271698983029,-1.7892569677154457,1.7664532881148067,-0.42868215242494756,-1.1198065916644495,0.5964164733886719,-2.5619633833514612,-0.3413332144366663,-0.05637580553163701,-0.1955490037647346,-0.13793109955216873,0.002213835240535842,0.0030658048711657525,0.0020780947076957344,0.0030394154438289443,-0.196447546202968,-0.1378782188095518,0.0013392121229510107,0.0015788043491987737,-0.0007799610261768654,0.0014764274335168723,False
